!!!!SEGMENT: pl-kk--kk-i-1--048-002_szadek-tomasz--officium-dies-est-laetitiae-et-in-terra.krn
!!!cenid: 15xx:762
!!!COM: Szadek, Tomasz
!!!COM-rismID: pe30020506
!!!CDT: ~1550-1612
!!!CNT: Polish
!!!OPR: Officium Dies est laetitiae
!!!OTL: Et in terra
!!!OMV: 002
!!!PDT:
!!!AGN:
!!!SMS-siglum: PL-Kk
!!!SMS-shelfmark: Kk.I.1
!!!SMS-shelfwork: 048-002 M
!!!SMS-variant:
!!!SMS-altvar:
!!!NIFC-rismSourceID: 300257954
!!!NIFC-rismChildID: 300258002
!!!NIFC-islandoraID: pl-kk:1
!!!URL-pdf-islandora: https://repozytorium.nifc.pl/islandora/object/pl-kk%3A1/datastream/PDF/view
!!!URL-scan: https://polish.musicsources.pl/pl/lokalizacje/galeria/rekopisy/5736 @EN{Scan on Polish Music Sources Website} @PL{Skany w portalu Dziedzictwo Muzyki Polskiej w otwartym dostępie}
!!!ONB-nifc: UWAGA: Cantus (s. 145v-152r, skan 0148-0154), Altus (s. 140v-147r, skan 0334-0340), Tenor (s. 119v-126v, skan 0510-0517), Bassus (s. 132v-139r, skan 0695-0701). Części Mszy: 1. Kyrie, 2. Et in terra, 3. Patrem, 4. Sanctus
!!!AIN: 1 alto 1 bass 1 soprn 1 tenor
!!!key: F:lyd
**kern	**text	**mod-text	**kern	**text	**mod-text	**kern	**text	**mod-text	**kern	**text	**mod-text
*part4	*part4	*part4	*part3	*part3	*part3	*part2	*part2	*part2	*part1	*part1	*part1
*staff4	*staff4	*staff4	*staff3	*staff3	*staff3	*staff2	*staff2	*staff2	*staff1	*staff1	*staff1
*I"BASSVS	*	*	*I"TENOR	*	*	*I"ALTVS	*	*	*I"CANTVS	*	*
*mI"Basso	*	*	*mI"Tenore II	*	*	*mI"Tenore I	*	*	*mI"Alto	*	*
*I'B	*	*	*I'T	*	*	*I'A	*	*	*I'S	*	*
*	*	*	*mI'T 2	*	*	*mI'T 1	*	*	*mI'A	*	*
*Ibass	*	*	*Itenor	*	*	*Ialto	*	*	*Isoprn	*	*
*ICvox	*	*	*ICvox	*	*	*ICvox	*	*	*ICvox	*	*
*clefF4	*	*	*clefC4	*	*	*clefC4	*	*	*clefC3	*	*
*	*	*	*mclefGv2	*	*	*mclefGv2	*	*	*mclefGv2	*	*
*k[b-]	*	*	*k[b-]	*	*	*k[b-]	*	*	*k[b-]	*	*
*F:lyd	*	*	*F:lyd	*	*	*F:lyd	*	*	*F:lyd	*	*
!LO:MO:mod=!LO&colon;TS&colon;brack	!	!	!LO:MO:mod=!LO&colon;TS&colon;brack	!	!	!LO:MO:mod=!LO&colon;TS&colon;brack	!	!	!LO:MO:mod=!LO&colon;TS&colon;brack	!	!
!null	!	!	!null	!	!	!null	!	!	!null	!	!
*M2/1	*	*	*M2/1	*	*	*M2/1	*	*	*M2/1	*	*
*met()	*	*	*met()	*	*	*met()	*	*	*met()	*	*
*mmet(c|)	*	*	*mmet(c|)	*	*	*mmet(c|)	*	*	*mmet(c|)	*	*
=1-	=1-	=1-	=1-	=1-	=1-	=1-	=1-	=1-	=1-	=1-	=1-
!!LO:TX:t=P:problem:we wszystkich głosach obecne są cezury (pionowe kreseczki) dopisane później, prawdopodobnie nie odnoszą się do podziału tekstu, ponieważ często są w nietypowych miejscach (np. pośrodku ligatury), być może pełnią funkcję kresek pseudotaktowych
!!LO:TX:t=P:problem:we wszystkich głosach brak oznaczenia metrum, prawdopodobnie należy je powtórzyć z części "Kyrie"
*xywh-#696:1436,690,4136,823	*	*	*xywh-#511:1137,659,4375,680	*	*	*xywh-#335:1717,1362,4216,914	*	*	*xywh-#148:6156,2922,4118,714	*	*
00r	.	.	00r	.	.	2F/	Et	Et	0r	.	.
.	.	.	.	.	.	2F/	in	in	.	.	.
.	.	.	.	.	.	1G	ter-	ter-	.	.	.
=2-	=2-	=2-	=2-	=2-	=2-	=2-	=2-	=2-	=2-	=2-	=2-
.	.	.	.	.	.	1A	-ra	-ra	2c/	ET	Et
.	.	.	.	.	.	.	.	.	2c/	in	in
.	.	.	.	.	.	2.B-\	pax	pax	1d	ter-	ter-
.	.	.	.	.	.	4A/	.	.	.	.	.
=3-	=3-	=3-	=3-	=3-	=3-	=3-	=3-	=3-	=3-	=3-	=3-
2C/	Et	Et	1r	.	.	4G/	.	.	1e	-ra	-ra
.	.	.	.	.	.	4F/	.	.	.	.	.
2C/	in	in	.	.	.	2G/	.	.	.	.	.
1D	ter-	ter-	2F/	Et	Et	2F/	ho-	ho-	2f\	pax	pax
.	.	.	2F/	in	in	2A/	-mi-	-mi-	2d\	ho-	ho-
=4-	=4-	=4-	=4-	=4-	=4-	=4-	=4-	=4-	=4-	=4-	=4-
1E	-ra	-ra	1G	ter-	ter-	2G/	-ni-	-ni-	2c/	-mi-	-mi-
.	.	.	.	.	.	2C/	-bus	-bus	2.c/	-ni-	-ni-
*	*	*	*	*	*	*	*ij	*ij	*	*	*
2.F\	pax	pax	1A	-ra	-ra	2c\	et	et	.	.	.
.	.	.	.	.	.	.	.	.	4B-/	.	.
.	.	.	.	.	.	2c\	in	in	4A/	-bus.	.
4E\	.	.	.	.	.	.	.	.	4G/	.	.
=5-	=5-	=5-	=5-	=5-	=5-	=5-	=5-	=5-	=5-	=5-	=5-
2D/	ho-	ho-	2.B-\	pax	pax	1d	ter-	ter-	1F	.	-bus
2BB-/	-(mi-	-mi-	.	.	.	.	.	.	.	.	.
.	.	.	4A/	.	.	.	.	.	.	.	.
1C	-n)i-	-ni-	4G/	ho-	ho-	2e\	-ra	-ra	1c	.	[pax
.	.	.	4F/	.	.	.	.	.	.	.	.
.	.	.	2G/	-mi-	-mi-	2e\	pax	pax	.	.	.
=6-	=6-	=6-	=6-	=6-	=6-	=6-	=6-	=6-	=6-	=6-	=6-
1FF	-bus	-bus	2F/	-ni-	-ni-	2.f\	ho-	ho-	2A/	.	ho-
.	.	.	2F/	-bus	-bus	.	.	.	1c	.	-mi-
.	.	.	.	.	.	4f\	-mi-	-mi-	.	.	.
*	*	*	*	*	*	*custos:c	*	*	*	*	*
1r	.	.	1G	bo-	bo-	1d	-ni-	-ni-	.	.	.
.	.	.	.	.	.	.	.	.	2B-/	.	-ni-
=7-	=7-	=7-	=7-	=7-	=7-	=7-	=7-	=7-	=7-	=7-	=7-
!	!	!	!	!	!	!LO:LB:g=original	!	!	!	!	!
*	*	*	*	*	*	*xywh-#335:1805,2083,4146,779	*	*	*	*	*
1C	bo-	bo-	2G/	-nae	-nae	2c\	-bus	-bus	2c/	.	-bus]
*	*	*	*	*	*	*	*Xij	*Xij	*	*	*
.	.	.	4C/	vo-	vo-	1c	bo-	bo-	2.G/	Bo-	bo-
*	*	*	*custos:E	*	*	*	*	*	*	*	*
.	.	.	4D/	.	.	.	.	.	.	.	.
*	*	*	*xywh-#511:1408,1431,4093,737	*	*	*	*	*	*	*	*
!	!	!	!LO:LB:g=original	!	!	!	!	!	!	!	!
2C/	-nae	-nae	4E/	.	.	.	.	.	.	.	.
.	.	.	4F/	.	.	.	.	.	4A/	-nae	.
*	*	*	*	*	*	*	*	*	*custos:c	*	*
2GG/	vo-	vo-	2.G/	.	.	2B-\	-ne	-nae	2B-/	.	-nae
!	!	!	!	!	!	!	!	!	!LO:PB:g=original	!	!
=8-	=8-	=8-	=8-	=8-	=8-	=8-	=8-	=8-	=8-	=8-	=8-
*	*	*	*	*	*	*	*	*	*xywh-#149:1628,642,4026,753	*	*
!	!	!	!	!	!	!	!LO:MO:mod=vo-	!	!	!	!
2AA/	-lun-	-lun-	.	.	.	2A\	uo-	vo-	2c/	vo-	vo-
.	.	.	4F/	-lun-	.	.	.	.	.	.	.
2BB-/	.	.	1F	-ta-	-lun-	2F/	-lun-	-lun-	2d\	-lun-	-lun-
1GG	-ta-	-ta-	.	.	.	1G	-ta-	-ta-	1B-	-ta-	-ta-
.	.	.	2E/	-tis	-ta-	.	.	.	.	.	.
=9-	=9-	=9-	=9-	=9-	=9-	=9-	=9-	=9-	=9-	=9-	=9-
1FF	-t(is)	-tis	2F/	.	-tis	2C/	-tis	-tis	2A/	-t(is)	-tis
*	*ij	*ij	*	*ij	*ij	*	*ij	*ij	*	*	*
.	.	.	2A/	bo-	bo-	1c	bo-	bo-	4F/	vo-	vo-
.	.	.	.	.	.	.	.	.	4G/	-lun-	.
2F\	bo-	bo-	2A/	-nae	-nae	.	.	.	4A/	-ta-	.
.	.	.	.	.	.	.	.	.	4B-/	.	.
2E\	-nae	-nae	2.G/	vo-	vo-	2G/	-ne	-nae	1c\	-tis	-lun-
=10-	=10-	=10-	=10-	=10-	=10-	=10-	=10-	=10-	=10-	=10-	=10-
!	!	!	!	!	!	!	!LO:MO:mod=vo-	!	!	!	!
2F\	vo-	vo-	.	.	.	2A/	uo-	vo-	.	.	.
.	.	.	4F/	.	.	.	.	.	.	.	.
2BB-/	-lun-	-lun-	1F	-lun-	-lun-	2B-\	-lun-	-lun-	2d\	.	-ta-
*custos:FF	*	*	*	*	*	*	*	*	*	*	*
1C	-ta-	-ta-	.	.	.	1G	-ta-	-ta-	1c	.	-tis.
.	.	.	2E/	-ta-	-ta-	.	.	.	.	.	.
=11-	=11-	=11-	=11-	=11-	=11-	=11-	=11-	=11-	=11-	=11-	=11-
*xywh-#696:1441,1370,4182,864	*	*	*	*	*	*	*	*	*	*	*
!LO:LB:g=original	!	!	!	!	!	!	!	!	!	!	!
2FF/	-t(is)	-tis.	2F/	-tis	-tis.	1A	-tis	-tis.	2c/	LAu-	Lau-
*	*Xij	*Xij	*	*Xij	*Xij	*	*	*	*	*	*
1F	Lau-	Lau-	2A/	Lau-	Lau-	.	.	.	1c	-da-	-da-
!	!	!	!	!	!	!LO:MO:mod=1r	!	!	!	!	!
.	.	.	1A	-da-	-da-	0r	.	.	.	.	.
2F\	-da-	-da-	.	.	.	.	.	.	1d\	-mus	-mus
*	*	*	*	*	*	*	*Xij	*Xij	*	*	*
=12-	=12-	=12-	=12-	=12-	=12-	=12-	=12-	=12-	=12-	=12-	=12-
!	!	!	!	!	!	!LO:MO:null:mod=0r	!	!	!	!	!
1G	-mus	-mus	1B-	-m(us)	-mus	.	.	.	.	.	.
.	.	.	.	.	.	.	.	.	1e	te	te.
!	!	!	!	!	!	!LO:MO:mod=.	!	!	!	!	!
1A	te	te.	2c\	te,	te.	1r	.	.	.	.	.
*	*	*	*custos:d	*	*	*	*	*	*	*	*
.	.	.	2c\	be-	Be-	.	.	.	1f\	Be-	Be-
=13-	=13-	=13-	=13-	=13-	=13-	=13-	=13-	=13-	=13-	=13-	=13-
*	*	*	*xywh-#511:1414,2112,4098,743	*	*	*	*	*	*	*	*
!	!	!	!LO:LB:g=original	!	!	!	!	!	!	!	!
2.B-\	b(e)-	Be-	2.d\	-ne-	-ne-	2r	.	.	.	.	.
.	.	.	.	.	.	2d\	be-	Be-	2f\	-ne-	-ne-
4A\	-n(e)-	-ne-	4c\	-di-	.	.	.	.	.	.	.
2G\	-di-	-di-	2B-\	-ci-	-di-	2d\	-ne-	-ne-	2g\	-di-	-di-
2F\	-ci-	-ci-	1c\	-mus	-ci-	2f\	-di-	-di-	2a\	-ci-	-ci-
=14-	=14-	=14-	=14-	=14-	=14-	=14-	=14-	=14-	=14-	=14-	=14-
1G	-mus	-mus	.	.	.	2.d\	-ci-	-ci-	1g	-m(us)	-mus
!	!	!	!LO:SIC:s=2Bi	!	!	!	!	!	!	!	!
.	.	.	2B-\	te	-mus	.	.	.	.	.	.
.	.	.	.	.	.	4d\	-mus	-mus	.	.	.
2C/	te	te.	2c\	.	te.	2c\	te	te.	2e\	te	te.
1F\	A-	A-	1A\	A-	A-	1c\	a-	A-	1f\	A-	A-
=15-	=15-	=15-	=15-	=15-	=15-	=15-	=15-	=15-	=15-	=15-	=15-
.	.	.	.	.	.	.	.	.	.	.	.
*	*	*	*	*	*	*custos:e-	*	*	*custos:g	*	*
2F\	-do-	-do-	2A/	-do-	-do-	2c\	-do-	-do-	2f\	-do-	-do-
*	*	*	*	*	*	*xywh-#335:1823,2793,4140,891	*	*	*xywh-#149:1628,1376,4065,772	*	*
!	!	!	!	!	!	!LO:LB:g=original	!	!	!LO:LB:g=original	!	!
1E-X	-ra-	-ra-	2B-\	-ra-	-ra-	2e-X\	-ra-	-ra-	2g\	-ra-	-ra-
.	.	.	2G/	-mus	-mus	2e-\	-mus	-mus	2g\	-mus	-mus
=16-	=16-	=16-	=16-	=16-	=16-	=16-	=16-	=16-	=16-	=16-	=16-
2F\	-m(us)	-mus	2A/	te,	te.	1c	te	te.	2f\	te	te.
2F\	te	te.	2A/	glo-	Glo-	.	.	.	4c\	glo-	Glo-
.	.	.	.	.	.	.	.	.	4d\	.	.
!	!	!	!	!	!	!	!	!	!LO:SIC:s=4e-i	!	!
2r	.	.	2.c\	-ri-	-ri-	2r	.	.	4e\	-ri-	-ri-
.	.	.	.	.	.	.	.	.	4f\	.	.
2C/	glo-	Glo-	.	.	.	2e-X\	glo-	Glo-	2.g\	-fi-	-fi-
.	.	.	4B-\	.	-fi-	.	.	.	.	.	.
=17-	=17-	=17-	=17-	=17-	=17-	=17-	=17-	=17-	=17-	=17-	=17-
2D/	-ri-	-ri-	2A/	-fi-	-ca-	2d\	-ri-	-ri-	.	.	.
.	.	.	.	.	.	.	.	.	4f\	-ca-	.
2BB-/	-fi-	-fi-	2B-/	-ca-	.	2d\	-fi-	-fi-	1f	-mus	-ca-
1C	-ca-	-ca-	1G	-mus	-mus	1c	-ca-	-ca-	.	.	.
.	.	.	.	.	.	.	.	.	2e\	.	-mus
=18-	=18-	=18-	=18-	=18-	=18-	=18-	=18-	=18-	=18-	=18-	=18-
*	*	*	*custos:c	*	*	*	*	*	*	*	*
2FF/	-m(us)	-mus	1F	te	te.	2c\	-mus	-mus	1f	te.	te.
*custos:F	*	*	*	*	*	*	*	*	*	*	*
2FF/	te	te.	.	.	.	2c\	te	te.	.	.	.
*xywh-#696:1424,2159,4285,841	*	*	*xywh-#511:1434,2887,4024,876	*	*	*	*	*	*	*	*
!LO:LB:g=original	!	!	!LO:LB:g=original	!	!	!	!	!	!	!	!
1F	Gra-	Gra-	1.c	Gra-	Gra-	1A	Gra-	Gra-	1f	Gra-	Gra-
=19-	=19-	=19-	=19-	=19-	=19-	=19-	=19-	=19-	=19-	=19-	=19-
2F\	-(ti-	-ti-	.	.	.	2A/	-(ti-	-ti-	2f\	-ti-	-ti-
2C/	-a)s	-as	2c\	-ti-	-ti-	2G/	-a)s	-as	2e\	-as	-as
4BB-/	a-	a-	1d	-as	-as	1B-	a-	a-	1f	a-	a-
4C/	.	.	.	.	.	.	.	.	.	.	.
4D/	-gi-	-gi-	.	.	.	.	.	.	.	.	.
4E/	.	.	.	.	.	.	.	.	.	.	.
=20-	=20-	=20-	=20-	=20-	=20-	=20-	=20-	=20-	=20-	=20-	=20-
1F	-mus	-mus	2.c\	a-	a-	1A	-gi-	-gi-	1f	-gi-	-gi-
.	.	.	4B-\	.	.	.	.	.	.	.	.
2r	.	.	4A\	.	.	2F/	-mus	-mus	2c/	-mus	-mus
.	.	.	4G\	.	.	.	.	.	.	.	.
2F\	a-	a-	2A\	-gi-	.	2f\	a-	a-	2a\	ti-	ti-
=21-	=21-	=21-	=21-	=21-	=21-	=21-	=21-	=21-	=21-	=21-	=21-
2G\	-gi-	-gi-	2B-\	-mus	-gi-	2d\	-gi-	-gi-	2g\	.	.
2A\	-mus	-mus	1c	ti-	-mus	2c\	-mus	-mus	2f\	.	.
1G	ti-	ti-	.	.	.	1d	ti-	ti-	1g	-bi	.
!	!	!	!LO:SIC:s=2Bi	!	!	!	!	!	!	!	!
.	.	.	2B-\	-bi	ti-	.	.	.	.	.	.
=22-	=22-	=22-	=22-	=22-	=22-	=22-	=22-	=22-	=22-	=22-	=22-
*	*	*	*	*	*	*	*	*	*	*ij	*
2C/	-bi	-bi	0c	.	-bi	2c\	-bi	-bi	2e\	a-	-bi
*	*	*	*	*	*	*	*ij	*ij	*	*	*ij
*	*	*	*	*	*	*custos:A	*	*	*	*	*
1C	prop-	prop-	.	.	.	2G/	a-	a-	1e	-gi-	ti-
*	*	*	*	*	*	*xywh-#335:6178,705,4163,856	*	*	*	*	*
!	!	!	!	!	!	!LO:PB:g=original	!	!	!	!	!
.	.	.	.	.	.	2A/	-gi-	-gi-	.	.	.
*	*	*	*	*	*	*	*	*	*custos:d	*	*
2C/	-ter	-ter	.	.	.	2G/	-mus	-mus	2e\	-mus	-bi
=23-	=23-	=23-	=23-	=23-	=23-	=23-	=23-	=23-	=23-	=23-	=23-
*	*	*	*	*	*	*	*	*	*xywh-#149:1633,2144,4113,743	*	*
!	!	!	!	!	!	!	!	!	!LO:LB:g=original	!	!
1D	ma-	ma-	1r	.	.	4F/	ti-	ti-	4d\	ti-	ti-
.	.	.	.	.	.	4G/	.	.	4e\	.	.
.	.	.	.	.	.	4A/	.	.	4f\	.	.
!	!	!	!	!	!	!LO:SIC:s=4Bi	!	!	!	!	!
.	.	.	.	.	.	4B-/	.	.	4d\	.	.
2C/	-gna	-gna[m]	1.c	pro-	pro-	2c\	-bi	-bi	2e\	.	.
*	*	*	*	*	*	*	*Xij	*Xij	*	*	*
2C/	gl(o-	glo-	.	.	.	2G/	prop-	prop-	1e\	-bi	-bi
*	*	*	*	*	*	*	*	*	*	*Xij	*Xij
=24-	=24-	=24-	=24-	=24-	=24-	=24-	=24-	=24-	=24-	=24-	=24-
2AA/	-ri)-	-ri-	.	.	.	1A	-ter	.	.	.	.
2FF/	-am	-am	2c\	-pter	-pter	.	.	.	1f	prop-	prop-
4BB-/	tu-	tu-	1d	ma-	ma-	1B-	.	-ter	.	.	.
4C/	.	.	.	.	.	.	.	.	.	.	.
4D/	-[[am]]-	.	.	.	.	.	.	.	2f\	-ter	-ter
*custos:F	*	*	*	*	*	*	*	*	*	*	*
4E/	.	.	.	.	.	.	.	.	.	.	.
=25-	=25-	=25-	=25-	=25-	=25-	=25-	=25-	=25-	=25-	=25-	=25-
*xywh-#696:1517,2891,4118,812	*	*	*	*	*	*	*	*	*	*	*
!LO:LB:g=original	!	!	!	!	!	!	!	!	!	!	!
2F\	-am	-am	2.c\	-gna(m)	-gnam	2A/	ma-	ma-	2f\	ma-	ma-
*	*ij	*ij	*	*	*	*	*	*	*	*	*
2C/	gl(o-	glo-	.	.	.	2G/	.	-gnam	2e\	-gnam	-gnam
*	*	*	*custos:A	*	*	*	*	*	*	*	*
.	.	.	4B-\	.	.	.	.	.	.	.	.
*	*	*	*xywh-#511:6040,644,4179,784	*	*	*	*	*	*	*	*
!	!	!	!LO:PB:g=original	!	!	!	!	!	!	!	!
2D/	-ri)-	-ri-	2A/	.	glo-	2F/	-gnam	glo-	2f\	glo-	glo-
2E\	-am	-am	2G/	glo-	.	2c\	glo-	.	2.g\	-ri-	-ri-
=26-	=26-	=26-	=26-	=26-	=26-	=26-	=26-	=26-	=26-	=26-	=26-
2F\	tu-	tu-	2A/	-ri-	-ri-	2c\	-ri-	-ri-	.	.	.
.	.	.	.	.	.	.	.	.	4f\	-am	.
2BB-/	.	.	2B-/	-am	-am	2d\	-am	-am	1f	tu-	-am
1C	.	.	1G	tu-	tu-	1c	tu-	tu-	.	.	.
.	.	.	.	.	.	.	.	.	2e\	-a(m).	tu-
=27-	=27-	=27-	=27-	=27-	=27-	=27-	=27-	=27-	=27-	=27-	=27-
2FF/	-am	-am.	2F/	-am	-am.	2A\	-am	-am.	1f	.	-am.
*	*Xij	*Xij	*	*	*	*	*	*	*	*	*
1BB-	Do-	Do-	2F/	Do-	Do-	2d\	Do-	Do-	.	.	.
.	.	.	2F/	-mi-	-mi-	2d\	-mi-	-mi-	2r	.	.
2BB-/	-mi-	-mi-	2F/	-ne	-ne	2.d\	-ne	-ne	2f\	Do-	Do-
=28-	=28-	=28-	=28-	=28-	=28-	=28-	=28-	=28-	=28-	=28-	=28-
1BB-	-ne	-ne	1D	De-	De-	.	.	.	2f\	-mi-	-mi-
*	*	*	*	*	*	*custos:B-	*	*	*	*	*
.	.	.	.	.	.	4c\	.	.	.	.	.
*	*	*	*	*	*	*xywh-#335:6149,1426,4193,862	*	*	*	*	*
!	!	!	!	!	!	!LO:LB:g=original	!	!	!	!	!
.	.	.	.	.	.	4B-/	.	.	2f\	-ne	-ne
.	.	.	.	.	.	4A/	.	.	.	.	.
2C/	De-	De-	2E/	-us	-us	2G/	de-	De-	2e\	De-	De-
2FF/	-us	-us	2.F/	Rex	Rex	2A/	-us	-us	2c/	-ŭs	-us
=29-	=29-	=29-	=29-	=29-	=29-	=29-	=29-	=29-	=29-	=29-	=29-
2BB-/	rex	Rex	.	.	.	2B-/	rex	Rex	4d\	rex	Rex
.	.	.	4E/	.	.	.	.	.	4c/	.	.
2C/	cae-	cae-	4D/	cae-	cae-	2G/	coe-	cae-	1c	cae-	cae-
.	.	.	4C/	.	.	.	.	.	.	.	.
1GG	-leſ-	-leſ-	1D	-leſ-	-leſ-	1G	-leſ-	-leſ-	.	.	.
*	*	*	*	*	*	*	*	*	*custos:c	*	*
!	!	!	!	!	!	!	!	!	!LO:SIC:s=2Bi	!	!
.	.	.	.	.	.	.	.	.	2B-/	-le-	-le-
=30-	=30-	=30-	=30-	=30-	=30-	=30-	=30-	=30-	=30-	=30-	=30-
*	*	*	*	*	*	*	*	*	*xywh-#149:1659,2887,4026,806	*	*
!	!	!	!	!	!	!	!	!	!LO:LB:g=original	!	!
0C	-tis	-tis	2C/	-tis	-tis	2G/	-tis	-tis	2c/	-ſtis	-ſtis
.	.	.	1G	De-	De-	2c\	De-	De-	2e\	De-	De-
.	.	.	.	.	.	2c\	-us	-us	2e\	-us	-us
*	*	*	*custos:A	*	*	*	*	*	*	*	*
.	.	.	2G/	-us	-us	2e-X\	pa-	Pa-	2g\	pa-	Pa-
=31-	=31-	=31-	=31-	=31-	=31-	=31-	=31-	=31-	=31-	=31-	=31-
*	*	*	*xywh-#511:6046,1422,4185,720	*	*	*	*	*	*	*	*
!	!	!	!LO:LB:g=original	!	!	!	!	!	!	!	!
0r	.	.	2A\	pa-	Pa-	2c\	.	-ter	2f\	-ter	-ter
.	.	.	2B-\	-ter	-ter	2.d\	-ter	om-	2.f\	om-	om-
.	.	.	2F/	om-	om-	.	.	.	.	.	.
.	.	.	.	.	.	4c\	om-	.	4e\	-ni-	.
.	.	.	2A/	-ni-	-ni-	1c\	-ni-	-ni-	4d\	-po-	-ni-
.	.	.	.	.	.	.	.	.	4c/	.	.
=32-	=32-	=32-	=32-	=32-	=32-	=32-	=32-	=32-	=32-	=32-	=32-
1r	.	.	1G	-po-	-po-	.	.	.	1d	-tens	-po-
!	!	!	!	!	!	!LO:SIC:s=2Bi	!	!	!	!	!
.	.	.	.	.	.	2B-\	-po-	-po-	.	.	.
1.C	De-	De-	2C/	-tens	-tens	2c\	-te(n)s	-tens	0e	.	-tens
.	.	.	2c\	De-	De-	2G/	De-	De-	.	.	.
=33-	=33-	=33-	=33-	=33-	=33-	=33-	=33-	=33-	=33-	=33-	=33-
.	.	.	2c\	-us	-us	2G/	-us	-us	.	.	.
2C/	-us	-us	2c\	Pa-	Pa-	2A/	pa-	Pa-	.	.	.
*	*	*	*	*	*	*custos:G	*	*	*	*	*
2D/	pa-	Pa-	2F/	-ter	-ter	2B-/	-ter	-ter	1r	.	.
*custos:BB-	*	*	*	*	*	*	*	*	*	*	*
*	*	*	*	*	*	*xywh-#335:6125,2200,4204,826	*	*	*	*	*
!	!	!	!	!	!	!LO:LB:g=original	!	!	!	!	!
2E-X\	-ter	-ter	2.B-\	om-	om-	2.G/	.	[om-	.	.	.
=34-	=34-	=34-	=34-	=34-	=34-	=34-	=34-	=34-	=34-	=34-	=34-
*xywh-#696:6018,673,4188,812	*	*	*	*	*	*	*	*	*	*	*
!LO:PB:g=original	!	!	!	!	!	!	!	!	!	!	!
2BB-/	om-	om-	.	.	.	.	.	.	2d\	Pa-	Pa-
.	.	.	4A/	-ni-	.	4F/	.	.	.	.	.
2D/	-ni-	-ni-	4G/	-po-	-ni-	1F	.	-ni-	2B-/	-ter	-ter
.	.	.	4F/	.	.	.	.	.	.	.	.
1C	-po-	-po-	1G	-tens	-po-	.	.	.	2c/	om-	om-
.	.	.	.	.	.	2E/	.	-po-	2.c/	-ni-	-ni-
=35-	=35-	=35-	=35-	=35-	=35-	=35-	=35-	=35-	=35-	=35-	=35-
1FF	-tens	-tens.	2A/	.	-tens.	0F	.	-tens.]	.	.	.
.	.	.	.	.	.	.	.	.	4B-/	-po-	.
.	.	.	2.c\	Do-	Do-	.	.	.	4A/	-tens	-po-
.	.	.	.	.	.	.	.	.	4G/	.	.
2r	.	.	.	.	.	.	.	.	0A	.	-tens.
.	.	.	4c\	-mi-	-mi-	.	.	.	.	.	.
*	*	*	*custos:d	*	*	*	*	*	*	*	*
2.F\	Do-	Do-	2c\	-ne	-ne	.	.	.	.	.	.
=36-	=36-	=36-	=36-	=36-	=36-	=36-	=36-	=36-	=36-	=36-	=36-
*	*	*	*xywh-#511:6035,2160,4156,749	*	*	*	*	*	*	*	*
!	!	!	!LO:LB:g=original	!	!	!	!	!	!	!	!
.	.	.	2d\	fi-	Fi-	1r	.	.	.	.	.
4F\	-mi-	-mi-	.	.	.	.	.	.	.	.	.
2F\	-ne	-ne	2c\	-li	-li	.	.	.	.	.	.
!	!	!	!	!LO:MO:mod=U-	!	!	!	!	!	!	!
2G\	fi-	Fi-	2B-\	V-	u-	2r	.	.	1r	.	.
2F\	-li	-li	2A/	-ni-	-ni-	2.c\	Do-	Do-	.	.	.
=37-	=37-	=37-	=37-	=37-	=37-	=37-	=37-	=37-	=37-	=37-	=37-
!	!LO:MO:mod=U-	!	!	!	!	!	!	!	!	!	!
2E\	V-	u-	2G/	-ge-	-ge-	.	.	.	2r	.	.
.	.	.	.	.	.	4c\	-mi-	-mi-	.	.	.
2F\	-ni-	-ni-	2.A/	-ni-	-ni-	2c\	-ne	-ne	2.f\	Do-	Do-
2D\	-ge-	-ge-	.	.	.	2d\	fi-	Fi-	.	.	.
.	.	.	4G/	.	.	.	.	.	4f\	-mi-	-mi-
*	*	*	*	*	*	*	*	*	*custos:g	*	*
2D\	-ni-	-ni-	4F/	.	.	2A\	-li	-li	2f\	-ne	-ne
.	.	.	4E/	.	.	.	.	.	.	.	.
=38-	=38-	=38-	=38-	=38-	=38-	=38-	=38-	=38-	=38-	=38-	=38-
*	*	*	*	*	*	*	*	*	*xywh-#149:6120,736,4194,805	*	*
!	!	!	!	!	!	!	!LO:MO:mod=U-	!	!LO:PB:g=original	!	!
1BB-	-te	-te	2D/	-te	-te	2B-\	V-	u-	2g\	fi-	Fi-
*	*	*	*	*ij	*ij	*	*	*	*	*	*
!	!	!	!	!LO:MO:mod=U-	!	!	!	!	!	!	!
.	.	.	2D/	V-	u-	2.d\	-ni-	-ni-	2f\	-li	-li
!	!	!	!	!	!	!	!	!	!	!LO:MO:mod=U-	!
0r	.	.	2A/	-ni-	-ni-	.	.	.	2e\	V-	u-
.	.	.	.	.	.	4c\	-ge-	.	.	.	.
.	.	.	2F/	-ge-	-ge-	1c\	.	-ge-	2f\	-ni-	-ni-
=39-	=39-	=39-	=39-	=39-	=39-	=39-	=39-	=39-	=39-	=39-	=39-
.	.	.	1G	-ni-	-ni-	.	.	.	2d\	-ge-	-ge-
!	!	!	!	!	!	!LO:SIC:s=2Bi	!	!	!	!	!
.	.	.	.	.	.	2B-\	-ni-	-ni-	2d\	-ni-	-ni-
2r	.	.	1C	-te	-te	0c	-te	-te	2c/	-te	-te
*	*ij	*ij	*	*Xij	*Xij	*	*	*	*	*ij	*ij
2.C/	Do-	Do-	.	.	.	.	.	.	2.e\	Do-	Do-
=40-	=40-	=40-	=40-	=40-	=40-	=40-	=40-	=40-	=40-	=40-	=40-
.	.	.	2r	.	.	.	.	.	.	.	.
4C/	-mi-	-mi-	.	.	.	.	.	.	4e\	-mi-	-mi-
2C/	-ne	-ne	2G/	Do-	Do-	.	.	.	2e\	-ne	-ne
!	!	!	!	!	!	!	!LO:MO:mod=U-	!	!	!	!
2D/	fi-	Fi-	2F/	-mi-	-mi-	2B-\	v-	u-	2f\	fi-	Fi-
2C/	-li	-li	2G/	-ne	-ne	2c\	-ni-	-ni-	2e\	-li	-li
=41-	=41-	=41-	=41-	=41-	=41-	=41-	=41-	=41-	=41-	=41-	=41-
!	!LO:MO:mod=U-	!	!	!	!	!	!	!	!	!LO:MO:mod=U-	!
2BB-/	V-	u-	2B-\	fi-	Fi-	2F/	-ge-	-ge-	2d\	V-	u-
*custos:G	*	*	*custos:G	*	*	*	*	*	*	*	*
2C/	-ni-	-ni-	2G/	-li	-li	2E/	-ni-	-ni-	1c	-ni-	-ni-
*	*	*	*	*	*	*custos:A	*	*	*	*	*
*xywh-#696:5989,1433,4274,783	*	*	*xywh-#511:6048,2915,4058,766	*	*	*	*	*	*	*	*
!LO:LB:g=original	!	!	!LO:LB:g=original	!	!	!	!	!	!	!	!
!	!	!	!	!LO:MO:mod=U-	!	!	!	!	!	!	!
1GG	-ge-	-ge-	1G	V-	u-	1D	-te	-te	.	.	.
!	!	!	!	!	!	!	!	!	!LO:SIC:s=2Bi	!	!
.	.	.	.	.	.	.	.	.	2B-/	-ge-	-ge-
=42-	=42-	=42-	=42-	=42-	=42-	=42-	=42-	=42-	=42-	=42-	=42-
*	*	*	*	*	*	*xywh-#335:6112,2894,4257,815	*	*	*	*	*
!	!	!	!	!	!	!LO:LB:g=original	!	!	!	!	!
2AA/	.	.	2C/	-ni-	-ni-	2A/	.	[u-	1c	-ni-	-ni-
2FF/	.	.	1F	-ge-	-ge-	2A/	.	-ni-	.	.	.
1C	-ni-	-ni-	.	.	.	1G	.	-ge-	0c	-te	-te
*	*	*	*	*	*	*	*	*	*	*Xij	*Xij
.	.	.	2E/	-ni-	-ni-	.	.	.	.	.	.
=43-	=43-	=43-	=43-	=43-	=43-	=43-	=43-	=43-	=43-	=43-	=43-
1FF	-te	-te	1F	-te	-te	2A/	.	-ni-	.	.	.
.	.	.	.	.	.	2A/	.	-te]	.	.	.
*	*Xij	*Xij	*	*	*	*	*	*	*	*	*
0GG	Je-	Je-	0D	Je-	Je-	1G	Je-	Je-	1B-	JE-	Je-
=44-	=44-	=44-	=44-	=44-	=44-	=44-	=44-	=44-	=44-	=44-	=44-
!	!	!	!	!	!	!	!	!	!	!LO:MO:mod=su	!
.	.	.	.	.	.	2.G/	-ſu	-ſu	1B-	-SV	-su
.	.	.	.	.	.	4F/	.	.	.	.	.
1AA	-ſu	-ſu	1C	-ſu	-ſu	1E	chr(i-	Chri-	1A	CHRI-	Chri-
=45-	=45-	=45-	=45-	=45-	=45-	=45-	=45-	=45-	=45-	=45-	=45-
2BB-/	Chr(i-	Chri-	1D	chri-	Chri-	2D/	-st)e	-ste	2F/	.	.
*	*	*	*	*	*	*	*ij	*ij	*	*	*
*	*	*	*	*	*	*	*	*	*custos:c	*	*
2GG/	.	.	.	.	.	1G	Je-	Je-	2B-/	-ſte	.
*	*	*	*	*	*	*	*	*	*xywh-#149:6120,1489,4252,654	*	*
!	!	!	!	!	!	!	!	!	!LO:LB:g=original	!	!
!	!	!	!LO:TX:t=P:problem=tekst niewidoczny - zaklejony	!	!	!	!	!	!	!	!
1C	-st)e	-ste	1E	-ſte	-ſte	.	.	.	1c	.	-ste
.	.	.	.	.	.	2A\	.	.	.	.	.
=46-	=46-	=46-	=46-	=46-	=46-	=46-	=46-	=46-	=46-	=46-	=46-
*lig	*ij	*ij	*	*	*	*	*	*	*	*ij	*ij
1BB-	Je-	Je-	1.F	.	[Je-	1B-	.	-su	2.d\	JE-	Je-
.	.	.	.	.	.	.	.	.	4c/	.	.
1D	.	.	.	.	.	4A\	.	Chri-	4d\	.	.
.	.	.	.	.	.	4G\	.	.	4e\	.	.
.	.	.	2F/	.	-su	4A\	.	.	1f\	.	.
.	.	.	.	.	.	4B-\	.	.	.	.	.
*Xlig	*	*	*	*	*	*	*	*	*	*	*
=47-	=47-	=47-	=47-	=47-	=47-	=47-	=47-	=47-	=47-	=47-	=47-
0C	.	.	0G	.	Chri-	0c	-ſu	-ste	.	.	.
!	!	!	!	!	!	!	!	!	!	!LO:MO:mod=su	!
.	.	.	.	.	.	.	.	.	4e\	-SV	-su
.	.	.	.	.	.	.	.	.	4d\	.	.
.	.	.	.	.	.	.	.	.	1e	CHRI-	Chri-
=48-	=48-	=48-	=48-	=48-	=48-	=48-	=48-	=48-	=48-	=48-	=48-
1FF	-ſu	-ſu	[0Fl	.	-ste.]	1A	chr(i-	Je-	1f	-ſte	-ſte
1BB-	Chr(i-	Chri-	.	.	.	1B-	.	-su	1d	JE-	Je-
=49-	=49-	=49-	=49-	=49-	=49-	=49-	=49-	=49-	=49-	=49-	=49-
!	!	!	!	!	!	!	!	!	!	!LO:MO:mod=su	!
2AA/	.	.	0F_	.	.	2c\	.	Chri-	2c/	-SV	-su
2BB-/	.	.	.	.	.	2d\	.	.	1B-	CHRI-	Chri-
*	*	*	*	*	*	*custos:A	*	*	*	*	*
!LO:SIC:s=[1FF	!	!	!	!	!	!LO:SIC:s=[1c	!	!	!	!	!
[1FFl;>/	-st)e	-ste.	.	.	.	[1cl;<\	-st)e	-ste.	.	.	.
.	.	.	.	.	.	.	.	.	4A/	.	.
.	.	.	.	.	.	.	.	.	4G/	.	.
=50-	=50-	=50-	=50-	=50-	=50-	=50-	=50-	=50-	=50-	=50-	=50-
*	*Xij	*Xij	*	*	*	*	*Xij	*Xij	*	*	*
!LO:SIC:s=0FF;]	!	!	!LO:SIC:s=0F;]	!	!	!LO:SIC:s=0c;]	!	!	!	!	!
0FF]	.	.	0F]	.	.	0c]	.	.	0A;l	-ſte	-ſte.
*	*	*	*	*	*	*	*	*	*	*Xij	*Xij
=51||	=51||	=51||	=51||	=51||	=51||	=51||	=51||	=51||	=51||	=51||	=51||
*	*	*	*xywh-#512:1319,670,4208,703	*	*	*xywh-#336:1645,594,4175,880	*	*	*	*	*
!	!	!	!	!	!	!LO:PB:g=original	!	!	!	!	!
1F	Do-	Do-	1F	Do-	Do-	1A	Do-	Do-	0r	.	.
2D\	-mi-	-mi-	2F/	-mi-	-mi-	2A/	-mi-	-mi-	.	.	.
2D\	-ne	-ne	2F/	-ne	-ne	1F/	-ne	-ne	.	.	.
=52-	=52-	=52-	=52-	=52-	=52-	=52-	=52-	=52-	=52-	=52-	=52-
*custos:F	*	*	*	*	*	*	*	*	*	*	*
1C	d(e)-	De-	1G	de-	De-	.	.	.	1c	Do-	Do-
.	.	.	.	.	.	2E/	de-	De-	.	.	.
*xywh-#696:5972,2125,4280,800	*	*	*	*	*	*	*	*	*	*	*
!LO:LB:g=original	!	!	!	!	!	!	!	!	!	!	!
2F\	-us	-us	2A/	-us	-us	1F	-us	-us	2c/	-mi-	-mi-
2A\	a-	A-	2A/	a-	A-	.	.	.	2c/	-ne	-ne
=53-	=53-	=53-	=53-	=53-	=53-	=53-	=53-	=53-	=53-	=53-	=53-
2G\	-gnus	-gnus	1B-	-gnus	-gnus	1r	.	.	1d	De-	De-
2G\	de-	De-	.	.	.	.	.	.	.	.	.
1C	-i	-i	1G	de-	De-	1c	a-	A-	2e\	-us.	-us
*	*	*	*	*	*	*	*	*	*custos:f	*	*
.	.	.	.	.	.	.	.	.	2e\	a-	A-
=54-	=54-	=54-	=54-	=54-	=54-	=54-	=54-	=54-	=54-	=54-	=54-
*	*	*	*	*	*	*	*	*	*xywh-#149:6125,2167,4194,799	*	*
!	!	!	!	!	!	!	!	!	!LO:LB:g=original	!	!
2F\	a-	A-	1F	-i,	-i	2A\	-gnus	-gnus	1f	-gnus	-gnus
2A\	-gnus	-gnus	.	.	.	1c	.	De-	.	.	.
1G	de-	De-	2r	.	.	.	.	.	1d	de-	De-
!	!	!	!	!	!	!LO:SIC:s=2Bi	!	!	!	!	!
.	.	.	1G/	A-	A-	2B-\	de-	.	.	.	.
=55-	=55-	=55-	=55-	=55-	=55-	=55-	=55-	=55-	=55-	=55-	=55-
2C/	-i	-i	.	.	.	2c\	-i	-i	1c	-i	-i
*	*	*	*	*	*	*	*ij	*ij	*	*	*
2F\	Do-	Do-	4F/	-gnus	-gnus	2A\	a-	A-	.	.	.
.	.	.	4G/	.	.	.	.	.	.	.	.
*	*	*	*	*	*	*	*	*	*	*ij	*ij
2F\	-mi-	-mi-	4A\	.	.	2A\	-gnus	-gnus	2.f\	a-	A-
.	.	.	4B-\	.	.	.	.	.	.	.	.
2F\	-ne	-ne	2.c\	de-	De-	2A\	de-	De-	.	.	.
.	.	.	.	.	.	.	.	.	4f\	-gnus	-gnus
=56-	=56-	=56-	=56-	=56-	=56-	=56-	=56-	=56-	=56-	=56-	=56-
1G	de-	De-	.	.	.	2G/	-i	-i	2e\	de-	De-
!	!	!	!LO:SIC:s=8B-L	!	!	!	!	!	!	!	!
.	.	.	8B-\	-i	.	.	.	.	.	.	.
!	!	!	!LO:SIC:s=8AJ	!	!	!	!	!	!	!	!
.	.	.	8A\	.	.	.	.	.	.	.	.
*	*	*	*	*	*	*	*Xij	*Xij	*	*	*
*	*	*	*custos:c	*	*	*	*	*	*	*	*
.	.	.	2B-\	.	.	2g\	fi-	Fi-	2d\	.	.
*	*	*	*xywh-#512:1354,1408,4110,760	*	*	*	*	*	*	*	*
!	!	!	!LO:LB:g=original	!	!	!	!	!	!	!	!
2A\	-us	-us	1c	.	-i	2e\	-li-	-li-	4c\	-i	-i
.	.	.	.	.	.	.	.	.	4d\	.	.
2A\	a-	A-	.	.	.	2c\	-us	-us	4e\	.	.
.	.	.	.	.	.	.	.	.	4f\	.	.
=57-	=57-	=57-	=57-	=57-	=57-	=57-	=57-	=57-	=57-	=57-	=57-
1B-	-gnus	-gnus	0r	.	.	1.d	pa-	Pa-	4g\	a-	A-
.	.	.	.	.	.	.	.	.	4f\	.	.
.	.	.	.	.	.	.	.	.	1f	-gnus	-gnus
1G	de-	De-	.	.	.	.	.	.	.	.	.
.	.	.	.	.	.	4c\	.	.	2e\	de-	De-
.	.	.	.	.	.	4B-\	.	.	.	.	.
=58-	=58-	=58-	=58-	=58-	=58-	=58-	=58-	=58-	=58-	=58-	=58-
*	*	*	*	*ij	*ij	*	*	*	*	*	*
2F\	-i	-i	1F	Do-	Do-	2A\	-tris	-tris.	2f\	-i	-i
*	*ij	*ij	*	*	*	*	*	*	*	*Xij	*Xij
1BB-	Do-	Do-	.	.	.	1B-	Do-	Do-	1d	Do-	Do-
.	.	.	2F/	-mi-	-mi-	.	.	.	.	.	.
*	*	*	*	*	*	*custos:B-	*	*	*	*	*
2BB-/	-mi-	-mi-	2F/	-ne	-ne	2B-\	-mi-	-mi-	2d\	-mi-	-mi-
=59-	=59-	=59-	=59-	=59-	=59-	=59-	=59-	=59-	=59-	=59-	=59-
*custos:D	*	*	*	*	*	*	*	*	*	*	*
*	*	*	*	*	*	*xywh-#336:1663,1370,4135,857	*	*	*	*	*
!	!	!	!	!	!	!LO:LB:g=original	!	!	!	!	!
1E-X	-ne	-ne	1G	de-	De-	2B-\	-ne	-ne	2g\	-ne	-ne
.	.	.	.	.	.	2c\	de-	De-	2g\	De-	De-
*xywh-#696:5995,2927,4326,910	*	*	*	*	*	*	*	*	*	*	*
!LO:LB:g=original	!	!	!	!	!	!	!	!	!	!	!
1D	de-	De-	2A/	-us,	-us	2d\	-us	-us	1f	-ŭs	-us
.	.	.	2A/	a-	A-	2d\	A-	A-	.	.	.
=60-	=60-	=60-	=60-	=60-	=60-	=60-	=60-	=60-	=60-	=60-	=60-
2BB-/	-us	-us	1B-	-gnus	-gnus	2d\	-gnus	-gnus	2d\	a-	A-
2BB-/	a-	A-	.	.	.	2d\	de-	De-	1f	-gnus	-gnus
1C	-gnus	-gnus	1G	de-	De-	2c\	-i	-i	.	.	.
.	.	.	.	.	.	2c\	fi-	Fi-	2e\	de-	De-
=61-	=61-	=61-	=61-	=61-	=61-	=61-	=61-	=61-	=61-	=61-	=61-
4D/	de-	De-	1F	-i	-i	2A\	-li-	-li-	2f\	-i	-i
4C/	.	.	.	.	.	.	.	.	.	.	.
*	*	*	*	*Xij	*Xij	*	*	*	*	*	*
*	*	*	*	*	*	*	*	*	*custos:d	*	*
4BB-/	.	.	.	.	.	2.B-\	-us	-us	2d\	fi-	Fi-
4AA/	.	.	.	.	.	.	.	.	.	.	.
*	*	*	*	*	*	*	*	*	*xywh-#149:6152,2913,4142,938	*	*
!	!	!	!	!	!	!	!	!	!LO:LB:g=original	!	!
2GG/	-i	-i	1G	fi-	Fi-	.	.	.	2d\	-li-	-li-
.	.	.	.	.	.	4A/	.	.	.	.	.
*	*Xij	*Xij	*	*	*	*	*	*	*	*	*
2GG/	fi-	Fi-	.	.	.	4G/	.	.	2.d\	-us	-us
.	.	.	.	.	.	4F/	.	.	.	.	.
=62-	=62-	=62-	=62-	=62-	=62-	=62-	=62-	=62-	=62-	=62-	=62-
2C/	-li-	-li-	2E/	-li-	-li-	2G/	.	.	.	.	.
.	.	.	.	.	.	.	.	.	4c/	pa-	.
2FF/	-us	-us	2F/	-us	-us	2A/	.	.	1c	-tris	Pa-
1GG	p(at)-	Pa-	1D	pat-	Pa-	1G	pa-	Pa-	.	.	.
!	!	!	!	!	!	!	!	!	!LO:SIC:s=2Bi	!	!
.	.	.	.	.	.	.	.	.	2B-/	.	.
=63-	=63-	=63-	=63-	=63-	=63-	=63-	=63-	=63-	=63-	=63-	=63-
2C/	-ris	-tris	1C	-ris.	-tris.	2E/	-tris	-tris	2c/	.	-tris
*	*	*	*	*	*	*	*ij	*ij	*	*ij	*ij
2AA/	.	[Fi-	.	.	.	2A/	fi-	Fi-	2c/	fi-	Fi-
2D/	.	-li-	2r	.	.	2F/	-li-	-li-	2A/	-li-	-li-
2BB-/	.	-us	2F/	Qui	Qui	1F/	-us	-us	2B-/	-us	-us
=64-	=64-	=64-	=64-	=64-	=64-	=64-	=64-	=64-	=64-	=64-	=64-
1C	.	Pa-	1c	tol-	tol-	.	.	.	1G	pa-	Pa-
.	.	.	.	.	.	2E/	pa-	Pa-	.	.	.
*	*	*	*custos:A	*	*	*	*	*	*	*	*
0FF	.	-tris.]	2c\	-lis	-lis	2F/	-tris	-tris.	1A	-tris	-tris.
*	*	*	*	*	*	*	*Xij	*Xij	*	*Xij	*Xij
*	*	*	*	*	*	*custos:F	*	*	*	*	*
*	*	*	*xywh-#512:1394,2163,4110,743	*	*	*	*	*	*	*	*
!	!	!	!LO:LB:g=original	!	!	!	!	!	!	!	!
.	.	.	1A\	pec-	pec-	2C/	qui	Qui	.	.	.
=65-	=65-	=65-	=65-	=65-	=65-	=65-	=65-	=65-	=65-	=65-	=65-
*	*	*	*	*	*	*xywh-#336:1663,2116,4146,775	*	*	*	*	*
!	!	!	!	!	!	!LO:LB:g=original	!	!	!	!	!
.	.	.	.	.	.	1F	tol-	tol-	2r	.	.
.	.	.	2A/	-ca-	-ca-	.	.	.	2F/	Q(ui)	Qui
2r	.	.	1A	-ta	-ta	2F/	-lis	-lis	1c	tol-	tol-
2FF/	qui	Qui	.	.	.	2F/	pec-	pec-	.	.	.
=66-	=66-	=66-	=66-	=66-	=66-	=66-	=66-	=66-	=66-	=66-	=66-
1C	tol-	tol-	4G/	mun-	mun-	2E/	-ca-	-ca-	2c/	-lis	-lis
.	.	.	4F/	.	.	.	.	.	.	.	.
.	.	.	4E/	.	.	2G/	-ta	-ta	2c/	pec-	pec-
.	.	.	4D/	-di,	.	.	.	.	.	.	.
1C	-lis	-lis	2C/	.	-di	4G/	mun-	mun-	2.c/	-ca-	-ca-
.	.	.	.	.	.	4F/	.	.	.	.	.
!	!	!	!	!LO:MO:mod=qui	!	!	!	!	!	!	!
.	.	.	2G/	QVi	qui	4E/	.	.	.	.	.
.	.	.	.	.	.	4D/	.	.	4d\	-ta	.
=67-	=67-	=67-	=67-	=67-	=67-	=67-	=67-	=67-	=67-	=67-	=67-
2r	.	.	1c	tol-	tol-	2C/	-di	-di	2e\	.	-ta
*	*ij	*ij	*	*	*	*	*ij	*ij	*	*	*
*custos:F	*	*	*	*	*	*	*	*	*	*	*
2C/	qui	qui	.	.	.	2G/	qui	qui	2e\	mun-	mun-
*xywh-#697:1439,652,4141,794	*	*	*	*	*	*	*	*	*	*	*
!LO:PB:g=original	!	!	!	!	!	!	!	!	!	!	!
1F	tol-	tol-	2c\	-lis	-lis	2.A/	tol-	tol-	2c/	-d(i)	-di
*	*	*	*	*	*	*	*	*	*	*ij	*ij
.	.	.	1A\	pec-	pec-	.	.	.	2c/	q(ui)	qui
.	.	.	.	.	.	4B-\	.	.	.	.	.
=68-	=68-	=68-	=68-	=68-	=68-	=68-	=68-	=68-	=68-	=68-	=68-
*	*	*	*	*	*	*	*	*	*custos:f	*	*
2F\	-lis	-lis	.	.	.	2c\	-lis	-lis	1f	tol-	tol-
*	*Xij	*Xij	*	*	*	*	*	*	*	*	*
1D	pec-	pec-	2A/	-ca-	-ca-	4F/	pec-	pec-	.	.	.
.	.	.	.	.	.	4G/	.	.	.	.	.
*	*	*	*	*	*	*	*	*	*xywh-#150:1619,641,4171,806	*	*
!	!	!	!	!	!	!	!	!	!LO:PB:g=original	!	!
.	.	.	1A	-ta	-ta	4A/	.	-ca-	2f\	-lis	-lis
.	.	.	.	.	.	4B-/	.	.	.	.	.
2C/	-ca-	-ca-	.	.	.	4c\	.	.	2e\	pec-	pec-
.	.	.	.	.	.	4B-\	.	.	.	.	.
=69-	=69-	=69-	=69-	=69-	=69-	=69-	=69-	=69-	=69-	=69-	=69-
*	*	*	*lig	*	*	*	*	*	*	*	*
1D	-ta	-ta	1F	mun-	mun-	4A\	.	.	2d\	-ca-	-ca-
.	.	.	.	.	.	4G\	.	.	.	.	.
.	.	.	.	.	.	1F	-ca-	.	2B-/	-ta	-ta
1C	m(un)-	mun-	1G	.	.	.	.	.	1c	mun-	mun-
.	.	.	.	.	.	2E/	-ta	-ta	.	.	.
*	*	*	*Xlig	*	*	*	*	*	*	*	*
=70-	=70-	=70-	=70-	=70-	=70-	=70-	=70-	=70-	=70-	=70-	=70-
2FF/	-di	-di	2A,/	-di	-di	2.F/	mun-	mun-	2c/	-d(i)	-di
*	*	*	*	*	*	*	*	*	*	*Xij	*Xij
1F	mi-	mi-	1A	Mi-	mi-	.	.	.	2c/	mi-	mi-
.	.	.	.	.	.	4G/	.	.	.	.	.
.	.	.	.	.	.	1A	-di	-di	2A/	-ſe-	-ſe-
2D\	-ſe-	-ſe-	2F/	-ſe-	-ſe-	.	.	.	2.d\	-re-	-re-
*	*	*	*	*	*	*	*Xij	*Xij	*	*	*
=71-	=71-	=71-	=71-	=71-	=71-	=71-	=71-	=71-	=71-	=71-	=71-
2E-X\	-re-	-re-	2G/	-re-	-re-	0r	.	.	.	.	.
.	.	.	.	.	.	.	.	.	4c/	-re	.
2C/	-re	-re	1A	-re	-re	.	.	.	1c	no-	-re
*lig	*	*	*	*	*	*	*	*	*	*	*
1D	no-	no-	.	.	.	.	.	.	.	.	.
!	!	!	!	!	!	!	!	!	!LO:SIC:s=2Bi	!	!
.	.	.	4G/	.	.	.	.	.	2B-/	-bis	no-
*	*	*	*custos:E	*	*	*	*	*	*	*	*
.	.	.	4F/	.	.	.	.	.	.	.	.
=72-	=72-	=72-	=72-	=72-	=72-	=72-	=72-	=72-	=72-	=72-	=72-
*	*	*	*	*	*	*custos:c	*	*	*	*	*
*	*	*	*xywh-#512:1390,2886,4070,841	*	*	*	*	*	*	*	*
!	!	!	!LO:LB:g=original	!	!	!	!	!	!	!	!
1C	.	.	4E/	no-	no-	2r	.	.	1c	.	-bis
.	.	.	4F/	.	.	.	.	.	.	.	.
*	*	*	*	*	*	*xywh-#336:1705,2884,4105,816	*	*	*	*	*
!	!	!	!	!	!	!LO:LB:g=original	!	!	!	!	!
.	.	.	4G/	.	.	1c	mi-	mi-	.	.	.
.	.	.	4E/	.	.	.	.	.	.	.	.
*Xlig	*	*	*	*	*	*	*	*	*	*	*
1FF	-bis	-bis	2F/	-bis	-bis	.	.	.	2r	.	.
*	*	*	*	*ij	*ij	*	*	*	*	*ij	*ij
.	.	.	1F/	Mi-	mi-	1A\	-ſe-	-ſe-	2c/	mi-	mi-
=73-	=73-	=73-	=73-	=73-	=73-	=73-	=73-	=73-	=73-	=73-	=73-
0r	.	.	.	.	.	.	.	.	2c/	-ſe-	-ſe-
.	.	.	2D/	-ſe-	-ſe-	2B-\	-re-	-re-	2.d\	-re-	-re-
.	.	.	2E-X/	-re-	-re-	2G/	-re	-re	.	.	.
.	.	.	.	.	.	.	.	.	4c/	.	.
.	.	.	2C/	-re	-re	1A\	no-	no-	1c\	-re	-re
=74-	=74-	=74-	=74-	=74-	=74-	=74-	=74-	=74-	=74-	=74-	=74-
2r	.	.	1D	no-	no-	.	.	.	.	.	.
*	*ij	*ij	*	*	*	*	*	*	*	*	*
!	!	!	!	!	!	!	!	!	!LO:SIC:s=2Bi	!	!
2F\	mi-	mi-	.	.	.	4G/	.	.	2B-/	no-	no-
.	.	.	.	.	.	4F/	.	.	.	.	.
*	*	*	*	*	*	*	*	*	*custos:c	*	*
2F\	-ſe-	-ſe-	1C	-bis	-bis	1G	.	.	1c	-bis	-bis
2E\	-re-	-re-	.	.	.	.	.	.	.	.	.
*	*	*	*	*Xij	*Xij	*	*	*	*	*	*
=75-	=75-	=75-	=75-	=75-	=75-	=75-	=75-	=75-	=75-	=75-	=75-
*	*	*	*	*	*	*	*	*	*xywh-#150:1660,1406,4074,820	*	*
!	!	!	!	!	!	!	!	!	!LO:LB:g=original	!	!
2F\	-re	-re	2r	.	.	2A\	-bis	-bis	2.c\	mi-	mi-
2F\	no-	no-	1c	Mi-	mi-	2A\	.	[mi-	.	.	.
.	.	.	.	.	.	.	.	.	4d\	.	.
2C/	-bis	-bis	.	.	.	2G/	.	-se-	2e\	-ſe-	-ſe-
*	*Xij	*Xij	*	*	*	*	*	*	*	*	*
*custos:BB-	*	*	*	*	*	*	*	*	*	*	*
2D/	mi-	mi-	2A\	-ſe-	-ſe-	1d\	.	-re-	2f\	.	.
=76-	=76-	=76-	=76-	=76-	=76-	=76-	=76-	=76-	=76-	=76-	=76-
*xywh-#697:1433,1413,4211,829	*	*	*	*	*	*	*	*	*	*	*
!LO:LB:g=original	!	!	!	!	!	!	!	!	!	!	!
2BB-/	-ſe-	-ſe-	2B-\	-re-	-re-	.	.	.	4g\	-re-	-re-
.	.	.	.	.	.	.	.	.	4f\	.	.
2BB-/	-re-	-re-	2B-\	-re	-re	2d\	.	-re	1f	-re	-re
2C/	-re	-re	1G	no-	no-	1c	.	no-	.	.	.
2C/	no-	no-	.	.	.	.	.	.	2e\	no-	no-
=77-	=77-	=77-	=77-	=77-	=77-	=77-	=77-	=77-	=77-	=77-	=77-
!LO:MO:mod=!null:null	!	!	!	!	!	!	!	!	!	!	!
!LO:N:vis=1	!	!	!	!	!	!	!	!	!	!	!
0FF;	-bis	-bis.	0F;l	-bis.	-bis.	0A;l	.	-bis.]	0f;l	-bis	-bis.
*	*	*	*	*	*	*	*	*	*	*Xij	*Xij
=78||	=78||	=78||	=78||	=78||	=78||	=78||	=78||	=78||	=78||	=78||	=78||
*	*	*	*xywh-#512:6143,679,4024,853	*	*	*	*	*	*	*	*
!	!	!	!	!LO:MO:mod=Qui	!	!	!	!	!	!	!
1r	.	.	1F	QVi	Qui	00r	.	.	0r	.	.
1C	Qui	Qui	1.c	tol-	tol-	.	.	.	.	.	.
=79-	=79-	=79-	=79-	=79-	=79-	=79-	=79-	=79-	=79-	=79-	=79-
1.F	tol-	tol-	.	.	.	.	.	.	1c	Q(ui)	Qui
.	.	.	2B-\	-lis	-lis	.	.	.	.	.	.
.	.	.	2A\	pec-	pec-	.	.	.	1.f	tol-	tol-
2E\	-lis	-lis	2G/	-ca-	-ca-	.	.	.	.	.	.
=80-	=80-	=80-	=80-	=80-	=80-	=80-	=80-	=80-	=80-	=80-	=80-
2D/	pec-	pec-	2F/	-ta	-ta	1F	Di-	Di-	.	.	.
2C/	.	-ca-	2A/	mun-	mun-	.	.	.	2e\	-lis	-lis
2BB-/	-ca-	.	2D/	-di	-di	1F	-es	-es	2d\	pec-	pec-
*	*	*	*	*ij	*ij	*	*	*	*	*	*
2AA/	-ta	-ta	2F/	pec-	pec-	.	.	.	2c/	-ca-	-ca-
=81-	=81-	=81-	=81-	=81-	=81-	=81-	=81-	=81-	=81-	=81-	=81-
1GG	m(un)-	mun-	2D/	-ca-	-ca-	1G	eſt	eſt	2B-/	-ta	-ta
.	.	.	2E/	.	.	.	.	.	2B-/	mun-	mun-
2FF/	-di	-di	2F/	.	.	1A	le-	lae-	2A/	-di,	-di,
*	*ij	*ij	*	*	*	*	*	*	*	*	*
2FF/	pec-	pec-	2A/	-ta	-ta	.	.	.	2c/	pec-	pec-
=82-	=82-	=82-	=82-	=82-	=82-	=82-	=82-	=82-	=82-	=82-	=82-
*	*	*	*	*	*	*custos:G	*	*	*	*	*
2BB-/	-ca-	-ca-	4G/	mun-	mun-	1B-	-ti-	-ti-	2d\	-(ca)-	-ca-
.	.	.	4F/	.	.	.	.	.	.	.	.
*	*	*	*	*	*	*	*	*	*custos:c	*	*
2BB-/	-ta	-ta	1F	.	.	.	.	.	2d\	-ta	-ta
*	*	*	*	*	*	*xywh-#336:6060,761,4210,799	*	*	*xywh-#150:1618,2143,4185,736	*	*
!	!	!	!	!	!	!LO:PB:g=original	!	!	!LO:LB:g=original	!	!
1C	m(un)-	mun-	.	.	.	1G	-ci-	-ti-	2c/	mun-	mun-
.	.	.	2E/	.	.	.	.	.	2c/	-di	-di
=83-	=83-	=83-	=83-	=83-	=83-	=83-	=83-	=83-	=83-	=83-	=83-
1FF	-di	-di	2F/	-di	-di	0F	-ae	-ae	2r	.	.
*	*Xij	*Xij	*	*Xij	*Xij	*	*	*	*	*ij	*ij
*	*	*	*custos:A	*	*	*	*	*	*	*	*
.	.	.	2A/	qui	qui	.	.	.	1c	q(ui)	qui
*	*	*	*xywh-#512:6039,1428,4335,853	*	*	*	*	*	*	*	*
!	!	!	!LO:LB:g=original	!	!	!	!	!	!	!	!
2r	.	.	2A/	tol-	tol-	.	.	.	.	.	.
2FF/	qui	qui	2A/	-lis	-lis	.	.	.	1f\	tol-	tol-
=84-	=84-	=84-	=84-	=84-	=84-	=84-	=84-	=84-	=84-	=84-	=84-
*custos:BB-	*	*	*	*	*	*	*	*	*	*	*
1C	tol-	tol-	2c\	pec-	pec-	1G	in	in	.	.	.
.	.	.	2G/	-ca-	-ca-	.	.	.	2e\	-lis	-lis
*xywh-#697:1450,2185,4141,806	*	*	*	*	*	*	*	*	*	*	*
!LO:LB:g=original	!	!	!	!	!	!	!	!	!	!	!
2BB-/	-lis	-lis	2B-\	-ta	-ta	1G	or-	or-	2d\	pec-	pec-
2C/	pec-	pec-	4A/	mun-	mun-	.	.	.	2c/	-(ca)-	-ca-
.	.	.	4G/	.	.	.	.	.	.	.	.
=85-	=85-	=85-	=85-	=85-	=85-	=85-	=85-	=85-	=85-	=85-	=85-
2D/	-ca-	-ca-	2F,/	-di	-di	1D	-tu	-tu	2B-/	.	-ta
!	!	!	!	!LO:MO:mod=qui	!	!	!	!	!	!	!
2F\	-ta	-ta	2F/	QVi	qui	.	.	.	2A/	-ta	mun-
2C/	m(un)-	mun-	1.c	tol-	tol-	1E	re-	re-	1G	mun-	-di
2C/	-di	-di	.	.	.	.	.	.	.	.	.
=86-	=86-	=86-	=86-	=86-	=86-	=86-	=86-	=86-	=86-	=86-	=86-
2.FF/	.	[pec-	.	.	.	0F	-ga-	-ga-	2F/	-di	qui
.	.	.	2B-\	-lis	-lis	.	.	.	2d\	q(ui)	tol-
4GG/	.	.	.	.	.	.	.	.	.	.	.
2AA/	.	-ca	2A\	pec-	pec-	.	.	.	2c/	tol-	-lis
1BB-/	.	.	2G/	-ca-	-ca-	.	.	.	1d\	-lis	pec-
=87-	=87-	=87-	=87-	=87-	=87-	=87-	=87-	=87-	=87-	=87-	=87-
.	.	.	2.F/	-ta	-ta	0F	-li	-li	.	.	.
2AA/	.	-ta	.	.	.	.	.	.	2c/	pec-	.
.	.	.	4E/	mun-	.	.	.	.	.	.	.
1BB-	.	mun-	1D	-di.	mun-	.	.	.	1B-	-(ca)-	-ca-
=88-	=88-	=88-	=88-	=88-	=88-	=88-	=88-	=88-	=88-	=88-	=88-
2FF/	.	-di]	0C	.	-di	1F	nam	nam	2A/	-ta	-ta
1FF	ſu-	ſu-	.	.	.	.	.	.	4c/	mun-	mun-
.	.	.	.	.	.	.	.	.	4B-/	.	.
.	.	.	.	.	.	1F	pro-	pro-	4A/	.	.
.	.	.	.	.	.	.	.	.	4G/	.	.
2FF/	-sci-	-sci-	.	.	.	.	.	.	1F/	.	.
=89-	=89-	=89-	=89-	=89-	=89-	=89-	=89-	=89-	=89-	=89-	=89-
1C	-pe	-pe	2r	.	.	1G	-ceſ-	-ceſ-	.	.	.
*	*	*	*	*	*	*	*	*	*custos:F	*	*
.	.	.	1C	ſu-	ſu-	.	.	.	2E/	.	.
*	*	*	*	*	*	*	*	*	*xywh-#150:1642,2875,4074,834	*	*
!	!	!	!	!	!	!	!	!	!LO:LB:g=original	!	!
2.FF/	de-	de-	.	.	.	1A	-sit	-sit	0F	-di	-di
*	*	*	*	*	*	*	*	*	*	*Xij	*Xij
.	.	.	2C/	-ſci-	-ſci-	.	.	.	.	.	.
4FF/	-pre-	-pre-	.	.	.	.	.	.	.	.	.
=90-	=90-	=90-	=90-	=90-	=90-	=90-	=90-	=90-	=90-	=90-	=90-
*	*	*	*custos:F	*	*	*	*	*	*	*	*
2BB-/	-ca-	-ca-	2D/	-pe	-pe	1B-	ho-	ho-	.	.	.
*	*	*	*xywh-#512:6051,2183,4243,749	*	*	*	*	*	*	*	*
!	!	!	!LO:LB:g=original	!	!	!	!	!	!	!	!
2BB-/	-ti-	-ti-	1F	de-	de-	.	.	.	.	.	.
1C	-o-	-o-	.	.	.	1G	-di-	-di-	2r	.	.
.	.	.	2E/	-pre-	-pre-	.	.	.	1c\	ſu-	ſu-
=91-	=91-	=91-	=91-	=91-	=91-	=91-	=91-	=91-	=91-	=91-	=91-
1FF	-(ne)m	-nem	2F/	-ca-	-ca-	1F	-e	-e	.	.	.
.	.	.	2A/	-ti-	-ti-	.	.	.	2c/	-ſci-	-ſci-
*custos:C	*	*	*	*	*	*	*	*	*	*	*
1r	.	.	2.A/	-o-	-o-	1F	de	de	2d\	-pe	-pe
.	.	.	.	.	.	.	.	.	1f\	de-	de-
.	.	.	4B-\	-nem	.	.	.	.	.	.	.
!LO:LB:g=original	!	!	!	!	!	!	!	!	!	!	!
=92-	=92-	=92-	=92-	=92-	=92-	=92-	=92-	=92-	=92-	=92-	=92-
*xywh-#697:1485,2892,4113,864	*	*	*	*	*	*	*	*	*	*	*
1.C	ſu-	ſu-	1c	.	-nem	1G	Ven-	ven-	.	.	.
.	.	.	.	.	.	.	.	.	4e\	.	.
.	.	.	.	.	.	.	.	.	4d\	.	.
*	*	*	*	*	*	*custos:D	*	*	*	*	*
.	.	.	1c	noſ-	no-	1G	-tre	-tre	2e\	-p(re)-	-pre-
2C/	-ſci-	-ſci-	.	.	.	.	.	.	2e\	-ca-	-ca-
=93-	=93-	=93-	=93-	=93-	=93-	=93-	=93-	=93-	=93-	=93-	=93-
*	*	*	*	*	*	*xywh-#336:6054,1478,4210,793	*	*	*	*	*
!	!	!	!	!	!	!LO:LB:g=original	!	!	!	!	!
2D/	-pe	-pe	2A,/	-tra(m),	-stram	1D	Vir-	vir-	2d\	-ti-	-ti-
2F\	de-	de-	2A/	de-	de-	.	.	.	2d\	-o-	-o-
1C	-p(re)-	-pre-	2G/	-p(re)-	-pre-	1E	-gi-	-gi-	1c	-ne(m)	-nem
.	.	.	2G/	-ca-	-ca-	.	.	.	.	.	.
=94-	=94-	=94-	=94-	=94-	=94-	=94-	=94-	=94-	=94-	=94-	=94-
2.FF/	-ca-	-ca-	2.A/	-ti-	-ti-	0F	-na-	-na-	2r	.	.
.	.	.	.	.	.	.	.	.	2f\	de-	de-
4GG/	.	.	4B-\	-o-	.	.	.	.	.	.	.
2AA/	-ti-	-ti-	2c\	-(ne)m	-o-	.	.	.	2.f\	-p(re)-	-pre-
1BB-/	-o-	-o-	1B-\	.	-nem	.	.	.	.	.	.
.	.	.	.	.	.	.	.	.	4e\	-ca-	-ca-
=95-	=95-	=95-	=95-	=95-	=95-	=95-	=95-	=95-	=95-	=95-	=95-
.	.	.	.	.	.	0F	-li	-li	2d\	-ti-	-ti-
2C/	-nem	-nem	1A	no-	no-	.	.	.	1c	-o-	-o-
1D	n(ost)-	no-	.	.	.	.	.	.	.	.	.
.	.	.	4G/	.	.	.	.	.	2B-/	-n(em)	-nem
*	*	*	*custos:G	*	*	*	*	*	*	*	*
.	.	.	4F/	.	.	.	.	.	.	.	.
=96-	=96-	=96-	=96-	=96-	=96-	=96-	=96-	=96-	=96-	=96-	=96-
*	*	*	*xywh-#512:6003,2921,4306,870	*	*	*	*	*	*	*	*
!	!	!	!LO:LB:g=original	!	!	!	!	!	!	!	!
2C/	-ra(m)	-stram.	2G,/	-ſtram	-ſtram.	1c	Pu-	pu-	4c/	no-	no-
.	.	.	.	.	.	.	.	.	4B-/	.	.
1F	.	Qui	1A	Q(ui)	Qui	.	.	.	4A/	.	.
.	.	.	.	.	.	.	.	.	4G/	.	.
.	.	.	.	.	.	1c	-er	-er	2F/	-ſtra(m)	-ſtram.
*	*	*	*	*	*	*	*	*	*custos:f	*	*
2F\	qui	se-	2A/	ſe-	ſe-	.	.	.	2f\	qui	Qui
=97-	=97-	=97-	=97-	=97-	=97-	=97-	=97-	=97-	=97-	=97-	=97-
*	*	*	*	*	*	*	*	*	*xywh-#150:6136,775,4192,778	*	*
!	!	!	!	!	!	!	!	!	!LO:PB:g=original	!	!
1BB-	ſe-	-des	1B-	-des	-des	1d	ad-	ad-	2f\	ſe-	ſe-
.	.	.	.	.	.	.	.	.	2f\	-des	-des
2C/	-des	ad	2G/	ad	ad	1c	-mi-	-mi-	2e\	ad	ad
2C/	ad	dex-	2G/	dex-	dex-	.	.	.	2g\	dex-	dex-
=98-	=98-	=98-	=98-	=98-	=98-	=98-	=98-	=98-	=98-	=98-	=98-
2F\	de-	-te-	2A/	-te-	-te-	1A	-ra-	-ra-	4f\	-te-	-te-
.	.	.	.	.	.	.	.	.	4e\	-ra(m)	.
2A\	-xte-	-ram	2c\	-ram	-ram	.	.	.	4d\	.	-ram
.	.	.	.	.	.	.	.	.	4c/	p(at)-	.
1G	-ra(m)	Pa-	4B-\	pa-	Pa-	1B-	-bi-	-bi-	1d	-ris.	Pa-
.	.	.	4A\	.	.	.	.	.	.	.	.
.	.	.	4G/	.	.	.	.	.	.	.	.
.	.	.	4F/	.	.	.	.	.	.	.	.
=99-	=99-	=99-	=99-	=99-	=99-	=99-	=99-	=99-	=99-	=99-	=99-
2C/	p(at)-	-tris	2G/	-tris	-tris	0c	-lis	-lis	2e\	.	-tris
*	*	*ij	*	*ij	*ij	*	*	*	*	*	*
1C	-ris	qui	1G	q(ui)	qui	.	.	.	2.e\	qui	qui
.	.	.	.	.	.	.	.	.	4f\	ſe-	.
*	*ij	*	*	*	*	*	*	*	*	*	*
*custos:F	*	*	*	*	*	*	*	*	*	*	*
2C/	ſe-	ſe-	2G/	ſe-	ſe-	.	.	.	4g\	-des	se-
.	.	.	.	.	.	.	.	.	4e\	.	.
=100-	=100-	=100-	=100-	=100-	=100-	=100-	=100-	=100-	=100-	=100-	=100-
*xywh-#697:6018,652,4274,766	*	*	*	*	*	*	*	*	*	*	*
!LO:PB:g=original	!	!	!	!	!	!	!	!	!	!	!
2F\	-des	-des	2A/	-des	-des	1c	to-	to-	1f	.	-des
1F	ad	ad	2A/	ad	ad	.	.	.	.	.	.
.	.	.	2A/	dex-	dex-	1c	-tus	-tus	2F/	ad	ad
2E\	dex-	dex-	2.G/	-te-	-te-	.	.	.	2G/	dex-	dex-
=101-	=101-	=101-	=101-	=101-	=101-	=101-	=101-	=101-	=101-	=101-	=101-
2D/	-te-	-te-	.	.	.	1d	de-	de-	2A/	-te-	-te-
.	.	.	4F/	.	.	.	.	.	.	.	.
2BB-/	-ra(m)	-ram	1F	-ram	-ram	.	.	.	2B-/	-ra(m)	-ram
1C	p(at)-	Pa-	.	.	.	1c	-lec-	-lec-	1G	pa-	Pa-
*	*	*	*custos:F	*	*	*	*	*	*	*	*
.	.	.	2E/	pa-	Pa-	.	.	.	.	.	.
=102-	=102-	=102-	=102-	=102-	=102-	=102-	=102-	=102-	=102-	=102-	=102-
*	*	*	*xywh-#513:1350,653,4019,809	*	*	*	*	*	*	*	*
!	!	!	!LO:LB:g=original	!	!	!	!	!	!	!	!
2FF/	-ris	-tris	2F/	-tris	-tris	1A	-ta-	-ta-	2A/	-(tr)is	-tris
*	*Xij	*Xij	*	*Xij	*Xij	*	*	*	*	*	*
*	*	*	*	*	*	*	*	*	*custos:B-	*	*
2AA/	mi-	mi-	2C/	Mi-	mi-	.	.	.	2c/	ad	ad
*	*	*	*	*	*	*	*	*	*xywh-#150:6156,1498,4275,806	*	*
!	!	!	!	!	!	!	!	!	!LO:LB:g=original	!	!
2BB-/	-ſe-	-ſe-	2D/	-ſe-	-ſe-	1G	-bi-	-bi-	2B-/	dex-	dex-
2C/	-re-	-re-	2E/	-re-	-re-	.	.	.	4A/	-te-	-te-
.	.	.	.	.	.	.	.	.	4G/	.	.
=103-	=103-	=103-	=103-	=103-	=103-	=103-	=103-	=103-	=103-	=103-	=103-
*	*	*	*	*	*	*custos:D	*	*	*	*	*
2D/	-re	-re	2F/	-re	-re	0F	-lis	-lis	2F/	-ram	-ram
2.BB-/	no-	no-	2.D/	no-	no-	.	.	.	1B-	p(at)-	Pa-
4C/	.	.	4E/	.	.	.	.	.	.	.	.
4D/	.	.	4F/	.	.	.	.	.	4A/	-ris	.
4E/	.	.	4G/	.	.	.	.	.	4G/	.	.
=104-	=104-	=104-	=104-	=104-	=104-	=104-	=104-	=104-	=104-	=104-	=104-
*	*	*	*	*	*	*xywh-#336:6054,2219,4210,816	*	*	*	*	*
!	!	!	!	!	!	!LO:LB:g=original	!	!	!	!	!
2F\	.	.	2.A\	.	.	1D	in	in	2F/	.	-tris
2D\	.	.	.	.	.	.	.	.	2F/	Mi-	mi-
.	.	.	4B-\	-bis	.	.	.	.	.	.	.
1C	.	.	2c\	.	-bis	1E	hu-	hu-	2G/	-ſe-	-ſe-
*	*	*	*	*ij	*ij	*	*	*	*	*	*
.	.	.	2C/	Mi-	mi-	.	.	.	2A/	-re-	-re-
=105-	=105-	=105-	=105-	=105-	=105-	=105-	=105-	=105-	=105-	=105-	=105-
2BB-/	-bis	-bis	2D/	-ſe-	-ſe-	1F	-ma-	-ma-	2B-/	-re	-re
*	*ij	*ij	*	*	*	*	*	*	*	*	*
2FF/	mi-	mi-	2C/	-re-	-re-	.	.	.	2A/	no-	no-
1GG	.	-se-	2C/	-re	-re	1D	-ni-	-ni-	1G	-bis	-bis
!	!	!	!LO:SIC:s=2BBi	!	!	!	!	!	!	!	!
.	.	.	2BB-/	no-	no-	.	.	.	.	.	.
=106-	=106-	=106-	=106-	=106-	=106-	=106-	=106-	=106-	=106-	=106-	=106-
*	*	*	*	*	*	*	*	*	*	*ij	*ij
2AA/	.	-re-	2C/	-bis	-bis	0C	-ta-	-ta-	2E/	mi-	mi-
*	*	*	*	*Xij	*Xij	*	*	*	*	*	*
*	*	*	*custos:G	*	*	*	*	*	*	*	*
2FF/	.	-re	2F/	mi-	mi-	.	.	.	1F	-ſe-	-ſe-
*custos:FF	*	*	*	*	*	*	*	*	*	*	*
*	*	*	*xywh-#513:1374,1434,4008,746	*	*	*	*	*	*	*	*
!	!	!	!LO:LB:g=original	!	!	!	!	!	!	!	!
1C	.	no-	1G	-ſe-	-ſe-	.	.	.	.	.	.
.	.	.	.	.	.	.	.	.	2E/	-re-	-re-
=107-	=107-	=107-	=107-	=107-	=107-	=107-	=107-	=107-	=107-	=107-	=107-
*xywh-#697:6006,1407,4274,789	*	*	*	*	*	*	*	*	*	*	*
!LO:LB:g=original	!	!	!	!	!	!	!	!	!	!	!
1FF	-ſe-	-bis	2.A\	-re-	-re-	0C	-te	-te	2F/	-re	-re
.	.	.	.	.	.	.	.	.	2F/	no-	no-
.	.	.	4B-\	.	.	.	.	.	.	.	.
1AA	.	mi-	2c\	-re	-re	.	.	.	1E	-bis	-bis.
*	*	*	*	*	*	*	*	*	*	*Xij	*Xij
.	.	.	2.A/	no-	no-	.	.	.	.	.	.
=108-	=108-	=108-	=108-	=108-	=108-	=108-	=108-	=108-	=108-	=108-	=108-
2.D/	-re-	-se-	.	.	.	1F	qui	qui	0r	.	.
.	.	.	4G/	.	.	.	.	.	.	.	.
.	.	.	4F/	.	.	.	.	.	.	.	.
4C/	.	.	4E/	.	.	.	.	.	.	.	.
2BB-/	.	-re-	2D/	-bis	-bis	1F	in-	in-	.	.	.
*	*	*	*	*ij	*ij	*	*	*	*	*	*
2AA/	.	-re	2F/	Mi-	mi-	.	.	.	.	.	.
=109-	=109-	=109-	=109-	=109-	=109-	=109-	=109-	=109-	=109-	=109-	=109-
2BB-/	.	no-	2F/	-ſe-	-ſe-	1G	-eſ-	-eſ-	2r	.	.
!	!	!	!	!	!	!	!	!	!	!LO:MO:mod=Quo-	!
2C/	.	.	2E/	-re-	-re-	.	.	.	1c	QVo-	Quo-
2FF/	.	-bis	2F/	-re	-re	1A	-ti-	-ti-	.	.	.
*	*	*	*	*	*	*	*	*	*custos:B-	*	*
2AA/	.	mi-	2C/	no-	no-	.	.	.	2c/	-ni-	-ni-
=110-	=110-	=110-	=110-	=110-	=110-	=110-	=110-	=110-	=110-	=110-	=110-
*	*	*	*	*	*	*	*	*	*xywh-#150:6163,2318,4240,750	*	*
!	!	!	!	!	!	!	!	!	!LO:LB:g=original	!	!
2GG/	-re	-se-	1G	-bis	-bis.	1B-	-ma-	-ma-	2B-/	-am	-am
2.GG/	no-	-re-	.	.	.	.	.	.	2G/	tu	tu
.	.	.	1r	.	.	1G	-bi-	-bi-	1B-	ſo-	ſo-
4AA/	.	-re	.	.	.	.	.	.	.	.	.
4BB-/	.	no-	.	.	.	.	.	.	.	.	.
4C/	.	.	.	.	.	.	.	.	.	.	.
=111-	=111-	=111-	=111-	=111-	=111-	=111-	=111-	=111-	=111-	=111-	=111-
*	*	*	*	*Xij	*Xij	*lig	*	*	*	*	*
2D\	-bis	-bis.	1r	.	.	1F	-lis	-lis	2.A/	-lus	-lus
*	*Xij	*Xij	*	*	*	*	*	*	*	*	*
1F	quo-	Quo-	.	.	.	.	.	.	.	.	.
.	.	.	.	.	.	.	.	.	4G/	.	.
.	.	.	2r	.	.	1A	.	.	4A/	.	.
.	.	.	.	.	.	.	.	.	4B-/	.	.
!	!	!	!	!LO:MO:mod=quo-	!	!	!	!	!	!	!
2F\	-ni-	-ni-	1c\	QVo-	Quo-	.	.	.	4c/	.	.
.	.	.	.	.	.	.	.	.	4d\	.	.
*	*	*	*	*	*	*Xlig	*	*	*	*	*
=112-	=112-	=112-	=112-	=112-	=112-	=112-	=112-	=112-	=112-	=112-	=112-
2E-X\	-am	-am	.	.	.	1G	eſt	eſt	1e-X	ſanc-	ſan-
2C/	tu	tu	2c\	-ni-	-ni-	.	.	.	.	.	.
1E-	ſo-	ſo-	2B-\	-am	-am	1G	et	et	2e-\	-tus	-ctus
*	*	*	*	*	*	*	*	*	*	*ij	*ij
.	.	.	2G/	tu	tu	.	.	.	2B-/	tu	tu
=113-	=113-	=113-	=113-	=113-	=113-	=113-	=113-	=113-	=113-	=113-	=113-
*	*	*	*custos:G	*	*	*	*	*	*	*	*
1BB-	-l(us)	-lus	1B-	ſo-	ſo-	1D	in-	in-	2d\	ſo-	ſo-
.	.	.	.	.	.	.	.	.	2d\	-lus	-lus
*custos:FF	*	*	*	*	*	*custos:F	*	*	*	*	*
*	*	*	*xywh-#513:1414,2203,4037,752	*	*	*	*	*	*	*	*
!	!	!	!LO:LB:g=original	!	!	!	!	!	!	!	!
1C	ſan-	ſan-	2G/	-lus	-lus	1E	-ef-	-ef-	1c	ſanc-	ſan-
.	.	.	2G/	ſanc-	ſan-	.	.	.	.	.	.
=114-	=114-	=114-	=114-	=114-	=114-	=114-	=114-	=114-	=114-	=114-	=114-
*xywh-#697:6018,2116,4234,823	*	*	*	*	*	*xywh-#336:6048,2970,4175,834	*	*	*	*	*
!LO:LB:g=original	!	!	!	!	!	!LO:LB:g=original	!	!	!	!	!
2FF/	-ctus	-ctus.	2A/	-tus,	-ctus.	1F	-fa-	-fa-	2c/	-tus	-ctus.
*	*	*	*	*	*	*	*	*	*	*Xij	*Xij
2BB-/	tu	Tu	1F	tu	Tu	.	.	.	2d\	tu	Tu
2BB-/	ſo-	ſo-	.	.	.	1D	-bi-	-bi-	2d\	ſo-	ſo-
2GG/	-lus	-lus	2G/	ſo-	ſo-	.	.	.	2B-/	-lus	-lus
=115-	=115-	=115-	=115-	=115-	=115-	=115-	=115-	=115-	=115-	=115-	=115-
2AA/	d(o-	Do-	2E/	-lus	-lus	0C	-lis	-lis	2c/	d(o-	Do-
2FF/	-mi)-	-mi-	1F	do-	Do-	.	.	.	2A/	-mi)-	-mi-
1C	-nus	-nus.	.	.	.	.	.	.	2G/	-nus	-nus.
.	.	.	2E/	-mi-	-mi-	.	.	.	1c\	tu	Tu
=116-	=116-	=116-	=116-	=116-	=116-	=116-	=116-	=116-	=116-	=116-	=116-
2r	.	.	1F	-nus.	-nus.	1D	in	in	.	.	.
1F	Tu	Tu	.	.	.	.	.	.	2B-/	ſo-	ſo-
.	.	.	2r	.	.	1C	di-	di-	2A/	-lus	-lus
!	!	!	!	!LO:MO:mod=Tu	!	!	!	!	!	!	!
2E\	so-	so-	2c\	TV	Tu	.	.	.	2G/	al-	Al-
=117-	=117-	=117-	=117-	=117-	=117-	=117-	=117-	=117-	=117-	=117-	=117-
*	*	*	*	*	*	*	*	*	*custos:c	*	*
!	!	!	!	!	!	!	!LO:MO:mod=vi-	!	!	!	!
2F\	-lus	-lus	2A\	ſo-	ſo-	1D	-ui-	-vi-	1F	-tiſ-	-tiſ-
2BB-/	al-	Al-	2B-\	-lus	-lus	.	.	.	.	.	.
*	*	*	*	*	*	*	*	*	*xywh-#150:6184,2993,4227,896	*	*
!	!	!	!	!	!	!	!	!	!LO:LB:g=original	!	!
2C/	-tiſ-	-tiſ-	2G/	al-	Al-	1E	-ni-	-ni-	1c	-ſi-	-ſi-
2C/	-si-	-si-	2G/	-tiſ-	-tiſ-	.	.	.	.	.	.
=118-	=118-	=118-	=118-	=118-	=118-	=118-	=118-	=118-	=118-	=118-	=118-
*	*	*	*	*	*	*lig	*	*	*	*	*
2FF/	-m(us)	-mus	2A/	-si-	-si-	0F	-ta-	-ta-	2c/	-mus	-mus
1BB-	Je-	Je-	2F/	-mus	-mus	.	.	.	2.d\	JE-	Je-
.	.	.	2B-\	JE-	Je-	.	.	.	.	.	.
.	.	.	.	.	.	.	.	.	4c/	-ſu	.
2D/	-su	-su	2A/	-ſu	-ſu	.	.	.	1f\	.	-su
=119-	=119-	=119-	=119-	=119-	=119-	=119-	=119-	=119-	=119-	=119-	=119-
*	*	*	*custos:A	*	*	*	*	*	*	*	*
0C	chr(i-	Chri-	0c	Chri-	Chri-	0G	.	.	.	.	.
.	.	.	.	.	.	.	.	.	4e\	chri-	.
.	.	.	.	.	.	.	.	.	4d\	.	.
.	.	.	.	.	.	.	.	.	1e	-ſte	Chri-
*	*	*	*	*	*	*Xlig	*	*	*	*	*
=120-	=120-	=120-	=120-	=120-	=120-	=120-	=120-	=120-	=120-	=120-	=120-
*	*	*	*xywh-#513:1443,2922,4048,861	*	*	*	*	*	*	*	*
!	!	!	!LO:LB:g=original	!	!	!	!	!	!	!	!
0FF	-st)e	-ste.	2A/	-ſte,	-ſte.	0F	-te	-te.	2f\	.	-ste.
!	!	!	!	!	!	!	!	!	!	!LO:MO:mod=Cum	!
.	.	.	1A	Cum	Cum	.	.	.	1c	CVm	Cum
.	.	.	2F/	ſanc-	San-	.	.	.	2A/	ſanc-	San-
=121-	=121-	=121-	=121-	=121-	=121-	=121-	=121-	=121-	=121-	=121-	=121-
0r	.	.	2G/	-to	-cto	2r	.	.	2B-/	-to	-cto
.	.	.	4F/	ſpi-	Spi-	1A	Cum	Cum	1c	ſpi-	Spi-
.	.	.	4E/	-ri-	.	.	.	.	.	.	.
.	.	.	1D	-tu	-ri-	.	.	.	.	.	.
!	!	!	!	!	!	!	!	!	!LO:SIC:s=2Bi	!	!
.	.	.	.	.	.	2F/	.	San-	2B-/	-ri-	-ri-
=122-	=122-	=122-	=122-	=122-	=122-	=122-	=122-	=122-	=122-	=122-	=122-
1.C	Cum	Cum	2C/	.	.	2.G/	ſanc-	-cto	2c/	-tu	-tu
*	*	*	*	*ij	*ij	*	*	*	*	*ij	*ij
!	!	!	!	!	!	!	!	!	!	!LO:MO:mod=Cum	!
.	.	.	1E	Cum	Cum	.	.	.	1G	CVm	cum
.	.	.	.	.	.	4F/	.	.	.	.	.
.	.	.	.	.	.	2E/	-to	.	.	.	.
*custos:BB-	*	*	*	*	*	*	*	*	*	*	*
2AA/	ſa(n)-	San-	2C/	ſanc-	ſanc-	1F/	ſpi-	Spi-	2A/	ſanc-	San-
=123-	=123-	=123-	=123-	=123-	=123-	=123-	=123-	=123-	=123-	=123-	=123-
*xywh-#697:6049,2870,4228,841	*	*	*	*	*	*	*	*	*	*	*
!LO:LB:g=original	!	!	!	!	!	!	!	!	!	!	!
2BB-/	-cto	-cto	2D/	-to	-to	.	.	.	1G	-to	-cto
2C/	sp(i-	Spi-	1C	ſpi-	Spi-	2E/	-ri-	.	.	.	.
*lig	*	*	*	*	*	*lig	*	*	*	*	*
1GG	-ri-	-ri-	.	.	.	1D	.	-ri-	2G/	ſpi-	Spi-
!	!	!	!LO:MO:mod=!null:null	!	!	!	!	!	!	!	!
!	!	!	!LO:N:acc=#	!	!	!	!	!	!	!	!
!	!	!	!LO:TX:t=P:problem=# below	!	!	!	!	!	!	!	!
.	.	.	2BBn/	-ri-	-ri-	.	.	.	2G/	-ri-	-ri-
=124-	=124-	=124-	=124-	=124-	=124-	=124-	=124-	=124-	=124-	=124-	=124-
*	*	*	*	*	*	*custos:F	*	*	*	*	*
1C	.	.	0C	-tu	-tu	1E	.	.	2G/	-tu	-tu
*	*	*	*	*	*	*	*	*	*	*Xij	*Xij
.	.	.	.	.	.	.	.	.	2G/	in	in
*Xlig	*	*	*	*Xij	*Xij	*Xlig	*	*	*	*	*
*	*	*	*	*	*	*xywh-#337:1746,718,4146,775	*	*	*	*	*
!	!	!	!	!	!	!LO:PB:g=original	!	!	!	!	!
1FF	-t)u	-tu	.	.	.	2F/	-tu	-tu	2c/	glo-	glo-
*	*	*	*	*	*	*	*	*	*custos:B-	*	*
.	.	.	.	.	.	2C/	in	in	2A/	-ri-	-ri-
=125-	=125-	=125-	=125-	=125-	=125-	=125-	=125-	=125-	=125-	=125-	=125-
*	*	*	*	*	*	*	*	*	*xywh-#151:1581,675,4178,799	*	*
!	!	!	!	!	!	!	!	!	!LO:PB:g=original	!	!
1r	.	.	2r	.	.	2G/	glo-	glo-	2B-/	-a	-a
.	.	.	2C/	In	in	2E/	-ri-	-ri-	2c/	de-	De-
2r	.	.	2F/	Glo-	glo-	2F/	-a	-a	2c/	-i	-i
!	!	!	!	!	!	!	!	!	!LO:SIC:s=2Bi	!	!
2GG/	in	in	2D/	-ri-	-ri-	2G/	de-	De-	2B-/	pa-	Pa-
=126-	=126-	=126-	=126-	=126-	=126-	=126-	=126-	=126-	=126-	=126-	=126-
2C/	glo-	glo-	2E/	-a	-a	2G/	 i	 i	2c/	-tris	-tris
2AA/	-ri-	-ri-	2F/	de-	De-	2A/	p(at)-	Pa-	2c/	de-	De-
2BB-/	-a	-a	2D/	-i	-i	2G/	-ris	-tris	2B-/	-i	-i
*	*	*	*custos:F	*	*	*	*	*	*	*	*
2C/	de-	De-	2E/	pa-	Pa-	2G/	in	in	2G/	p(at)-	Pa-
=127-	=127-	=127-	=127-	=127-	=127-	=127-	=127-	=127-	=127-	=127-	=127-
*	*	*	*xywh-#513:6094,668,2578,758	*	*	*	*	*	*	*	*
!	!	!	!LO:LB:g=original	!	!	!	!	!	!	!	!
2AA/	-i	-i	1F	-tris	-tris	2c\	glo-	glo-	2A/	-ris	-tris
*	*	*	*	*	*	*	*	*	*	*ij	*ij
1FF	p(at)-	Pa-	.	.	.	1A	-ri-	-ri-	2c/	in	in
.	.	.	1D	de-	De-	.	.	.	2f\	glo-	glo-
2GG/	-ris	-tris	.	.	.	2B-\	-a	-a	2d\	.	-ri-
=128-	=128-	=128-	=128-	=128-	=128-	=128-	=128-	=128-	=128-	=128-	=128-
*	*ij	*ij	*	*	*	*	*	*	*	*	*
2C/	in	in	2C/	-i	-i	2G/	.	[De-	2e\	-ri-	-a
1BB-	glo-	glo-	1D	pa-	Pa-	2B-\	.	-i]	2f\	.	De-
.	.	.	.	.	.	2d\	pa-	Pa-	2d\	-a	-i
2C/	-ri-	-ri-	2E/	-tris	-tris.	4c\	.	.	2.g\	de-	Pa-
.	.	.	.	.	.	4B-\	.	.	.	.	.
=129-	=129-	=129-	=129-	=129-	=129-	=129-	=129-	=129-	=129-	=129-	=129-
*	*	*	*lig	*	*	*	*	*	*	*	*
1D	-a	-a	1F	A-	A-	2A\	.	.	.	.	.
.	.	.	.	.	.	.	.	.	4f\	-i	.
.	.	.	.	.	.	2B-\	-tris	-tris.	1f	p(at)-	.
1C	.	.	1G	.	.	1c	A-	A-	.	.	.
.	.	.	.	.	.	.	.	.	2e\	.	.
*	*	*	*Xlig	*	*	*	*	*	*	*	*
=130-	=130-	=130-	=130-	=130-	=130-	=130-	=130-	=130-	=130-	=130-	=130-
!	!	!	!LO:SIC:s=[0F	!	!	!	!	!	!	!	!
2FF/	de-	De-	[0Fl;	-MEN	-men.	2A\	-men	-men.	2f\	-ris	-tris
*	*	*	*	*	*	*	*	*	*	*Xij	*Xij
2BB-/	.	.	.	.	.	1B-	de-	De-	1d	de-	De-
2BB-/	-i	-i	.	.	.	.	.	.	.	.	.
*	*	*	*	*	*	*custos:B-	*	*	*	*	*
2AA/	p(at)-	Pa-	.	.	.	2c\	-i	-i	2c/	-i	-i
=131-	=131-	=131-	=131-	=131-	=131-	=131-	=131-	=131-	=131-	=131-	=131-
*	*	*	*	*	*	*xywh-#337:1717,1476,1358,758	*	*	*	*	*
!	!	!	!	!	!	!LO:LB:g=original	!	!	!	!	!
1BB-	-ris	-tris.	0F_	.	.	1B-	p(at)-	Pa-	2.d\	p(at)-	Pa-
*	*	*	*	*	*	*	*	*	*custos:f	*	*
.	.	.	.	.	.	.	.	.	4e\	-ris	.
*	*Xij	*Xij	*	*	*	*	*	*	*	*	*
!	!	!	!	!	!	!	!	!	!LO:TX:t=P:problem=końcówka partii dopisana na końcu, a nie na początku następnego systemu	!	!
!	!	!	!	!	!	!	!	!	!LO:LB:g=original	!	!
1BB-	A-	A-	.	.	.	2F/	-ris	-tris.	2f\	.	-tris.
.	.	.	.	.	.	1B-\	a-	A-	1d\	A-	A-
=132-	=132-	=132-	=132-	=132-	=132-	=132-	=132-	=132-	=132-	=132-	=132-
!	!	!	!LO:SIC:s=0F;]	!	!	!	!	!	!	!	!
0FF;l	-men	-men.	0F]	.	.	.	.	.	.	.	.
.	.	.	.	.	.	4A/	-men	.	4c/	-men	.
.	.	.	.	.	.	4G/	.	.	4B-/	.	.
!	!	!	!	!	!	!LO:MO:mod=!LO&colon;N&colon;vis=0	!	!	!LO:MO:mod=!LO&colon;N&colon;vis=0	!	!
!	!	!	!	!	!	!null	!	!	!null	!	!
.	.	.	.	.	.	1A;<l	.	-men.	1cl;<	.	-men.
==	==	==	==	==	==	==	==	==	==	==	==
*-	*-	*-	*-	*-	*-	*-	*-	*-	*-	*-	*-
!!!system-decoration: [(*)]
!!LO:MO:ori
!!!RDF**kern: l = terminal long
!!!RDF**kern: > = above
!!!RDF**kern: < = below
!!LO:MO:mod
!! !!!RDF**kern: i = editorial accidental
!!LO:MO:end
!!!filter-modern: shed -e "s/TX(.*):t=P:/tx$1:t=P:/LG" | sic -sq | modori -m | autostem -r | tie -s | humtr -p | shed -e "s/-//B" | shed -e "s/^custos:/Xcustos:/I"
!!!ENC: Mateusz Solarz
!!!END: 2022-03-09
!!!ENC: Kamil Watkowski
!!!END: 2022-03-14
!!!ENC-modern: Andrzej Kubiczek
!!!END-modern: 2022-07-19
!!!YEC: Copyright 2022 Narodowy Instytut Fryderyka Chopina (https://polishscores.org)
!!!YEM: License CC-BY-4.0 (https://creativecommons.org/licenses/by/4.0)
!!!IIIF: https://repozytorium.nifc.pl/islandora/object/pl-kk%3A1/datastream/IIIF/view
!!!ENC-iiif: Elżbieta Cabała
!!!END-iiif: 2022-09-09
